;FLAVOR:Marlin
;TIME:1130
;Filament used: 1.11157m
;Layer height: 0.3
;MINX:114.951
;MINY:45.976
;MINZ:0.2
;MAXX:155.047
;MAXY:158.035
;MAXZ:2
;Generated with Cura_SteamEngine 4.9.0
M140 S65
M105
M190 S65
M104 S215
M105
M109 S215
M82 ;absolute extrusion mode
G90 ; use absolute coordinates
M140 S[first_layer_bed_temperature] ; set bed temp
M190 S[first_layer_bed_temperature] ; wait for bed temp
G28 ; home all without mesh bed level
G29 ; mesh bed leveling/ABL
M104 S[first_layer_temperature] ; set extruder temp
G92 E0.0
G1 Y-2.0 X150 F2400G1 Z3 F720
M109 S[first_layer_temperature] ; wait for extruder temp
G1 X150 F1000
G1 Z0.2 F720
G1 X80.0 E8.0 F900
G1 X20.0 E10.0 F700
G92 E0.0
M221 S95 ; set flow

G92 E0
G92 E0
G1 F5100 E-4
;LAYER_COUNT:7
;LAYER:0
M106 S255
M204 S1800
G0 F3600 X125.06 Y49.242 Z0.2
M204 S500
;TYPE:SKIRT
G1 F2040 E0
G1 F2400 X125.414 Y48.643 E0.0243
G1 X125.834 Y48.089 E0.04858
G1 X126.315 Y47.587 E0.07286
G1 X126.851 Y47.144 E0.09714
G1 X127.434 Y46.764 E0.12145
G1 X128.056 Y46.455 E0.1457
G1 X128.711 Y46.218 E0.17003
G1 X129.387 Y46.059 E0.19428
G1 X130.078 Y45.978 E0.21858
G1 X130.773 Y45.976 E0.24285
G1 X131.309 Y46.03 E0.26166
G1 X132.152 Y46.153 E0.29141
G1 X133.424 Y46.363 E0.33644
G1 X134.119 Y46.488 E0.3611
G1 X134.795 Y46.65 E0.38537
G1 X135.423 Y46.878 E0.40871
G1 X136.232 Y47.224 E0.43944
G1 X137.392 Y47.741 E0.48379
G1 X138.014 Y48.028 E0.50771
G1 X138.627 Y48.355 E0.53197
G1 X139.189 Y48.742 E0.5558
G1 X139.865 Y49.268 E0.58572
G1 X140.856 Y50.061 E0.63004
G1 X141.411 Y50.518 E0.65515
G1 X141.921 Y50.99 E0.67942
G1 X142.364 Y51.504 E0.70312
G1 X142.84 Y52.125 E0.73044
G1 X143.666 Y53.235 E0.77876
G1 X144.056 Y53.774 E0.802
G1 X144.431 Y54.36 E0.82629
G1 X144.735 Y54.984 E0.85053
G1 X145.063 Y55.767 E0.88018
G1 X145.55 Y56.974 E0.92563
G1 X145.795 Y57.608 E0.94937
G1 X146.008 Y58.27 E0.97366
G1 X146.139 Y58.921 E0.99685
G1 X146.256 Y59.733 E1.0255
G1 X146.427 Y61.059 E1.07219
G1 X146.505 Y61.739 E1.09609
G1 X146.534 Y62.075 E1.10787
G1 X146.593 Y63.1 E1.14373
G1 X146.639 Y64.146 E1.18029
G1 X146.832 Y66.804 E1.27336
G1 X147.099 Y69.441 E1.36592
G1 X147.44 Y72.064 E1.4583
G1 X147.857 Y74.694 E1.55129
G1 X148.345 Y77.294 E1.64368
G1 X148.911 Y79.897 E1.73671
G1 X149.546 Y82.469 E1.82923
G1 X150.263 Y85.053 E1.92288
G1 X151.042 Y87.582 E2.01529
G1 X151.899 Y90.106 E2.10838
G1 X152.833 Y92.625 E2.20221
G1 X153.582 Y94.5 E2.27272
G1 X153.729 Y94.914 E2.28806
G1 X153.964 Y95.656 E2.31524
G1 X154.345 Y96.913 E2.36111
G1 X154.553 Y97.631 E2.38722
G1 X154.754 Y98.637 E2.42305
G1 X154.836 Y99.371 E2.44884
G1 X154.976 Y100.802 E2.49905
G1 X155.034 Y101.494 E2.5233
G1 X155.047 Y102.312 E2.55188
G1 X155.03 Y102.575 E2.56108
G1 X154.972 Y103.238 E2.58432
G1 X154.83 Y104.683 E2.63503
G1 X154.751 Y105.379 E2.65949
G1 X154.55 Y106.386 E2.69535
G1 X154.346 Y107.085 E2.72078
G1 X153.944 Y108.41 E2.76914
G1 X153.722 Y109.107 E2.79468
G1 X153.496 Y109.722 E2.81757
G1 X152.682 Y111.767 E2.89443
G1 X151.77 Y114.254 E2.98694
G1 X150.93 Y116.759 E3.07921
G1 X150.149 Y119.328 E3.17299
G1 X149.461 Y121.851 E3.26431
G1 X148.83 Y124.447 E3.35761
G1 X148.264 Y127.095 E3.45218
G1 X147.795 Y129.657 E3.54314
G1 X147.386 Y132.296 E3.6364
G1 X147.055 Y134.926 E3.72897
G1 X146.797 Y137.575 E3.82192
G1 X146.555 Y141.442 E3.95724
G1 X146.514 Y142.185 E3.98322
G1 X146.466 Y142.64 E3.9992
G1 X146.239 Y144.397 E4.06107
G1 X146.142 Y145.069 E4.08478
G1 X146.003 Y145.751 E4.10909
G1 X145.796 Y146.389 E4.13251
G1 X145.501 Y147.149 E4.16099
G1 X144.998 Y148.393 E4.20785
G1 X144.728 Y149.031 E4.23204
G1 X144.42 Y149.655 E4.25634
G1 X144.067 Y150.207 E4.27923
G1 X143.578 Y150.885 E4.30842
G1 X142.78 Y151.956 E4.35506
G1 X142.375 Y152.485 E4.37833
G1 X141.921 Y153.012 E4.40262
G1 X141.417 Y153.477 E4.42657
G1 X140.759 Y154.018 E4.45632
G1 X139.762 Y154.815 E4.5009
G1 X139.203 Y155.25 E4.52563
G1 X138.63 Y155.644 E4.54992
G1 X138.022 Y155.968 E4.57398
G1 X137.287 Y156.307 E4.60224
G1 X136.079 Y156.844 E4.64841
G1 X135.438 Y157.118 E4.67276
G1 X134.784 Y157.354 E4.69704
G1 X134.136 Y157.509 E4.72031
G1 X133.318 Y157.656 E4.74933
G1 X131.972 Y157.877 E4.79697
G1 X131.336 Y157.972 E4.81943
G1 X130.643 Y158.035 E4.84373
G1 X129.948 Y158.018 E4.86801
G1 X129.259 Y157.921 E4.8923
G1 X128.586 Y157.746 E4.91659
G1 X127.938 Y157.495 E4.94086
G1 X127.322 Y157.172 E4.96515
G1 X126.748 Y156.779 E4.98944
G1 X126.223 Y156.324 E5.01371
G1 X125.753 Y155.811 E5.038
G1 X125.345 Y155.248 E5.06229
G1 X125.005 Y154.641 E5.08658
G1 X124.736 Y154 E5.11086
G1 X124.543 Y153.332 E5.13514
G1 X124.428 Y152.646 E5.15943
G1 X124.393 Y152.099 E5.17858
G1 X124.375 Y151.061 E5.21483
G1 X124.375 Y147.385 E5.34321
G1 X124.338 Y144.758 E5.43496
G1 X124.223 Y142.062 E5.5292
G1 X124.037 Y139.432 E5.62128
G1 X123.772 Y136.76 E5.71505
G1 X123.439 Y134.157 E5.8067
G1 X123.022 Y131.506 E5.90041
G1 X122.542 Y128.921 E5.99223
G1 X121.98 Y126.312 E6.08544
G1 X121.343 Y123.713 E6.17889
G1 X120.647 Y121.181 E6.2706
G1 X119.868 Y118.639 E6.36345
G1 X119.009 Y116.09 E6.45738
G1 X118.09 Y113.601 E6.55004
G1 X117.108 Y111.154 E6.64212
G1 X116.919 Y110.716 E6.65878
G1 X116.628 Y110.016 E6.68526
G1 X116.49 Y109.651 E6.69889
G1 X116.126 Y108.583 E6.73829
G1 X115.715 Y107.306 E6.78514
G1 X115.523 Y106.681 E6.80797
G1 X115.357 Y106.005 E6.83228
G1 X115.301 Y105.64 E6.84518
G1 X115.161 Y104.494 E6.8855
G1 X115.033 Y103.256 E6.92896
G1 X114.973 Y102.589 E6.95235
G1 X114.951 Y101.894 E6.97664
G1 X114.971 Y101.532 E6.9893
G1 X115.067 Y100.417 E7.02838
G1 X115.196 Y99.18 E7.07181
G1 X115.278 Y98.48 E7.09643
G1 X115.399 Y97.795 E7.12072
G1 X115.495 Y97.435 E7.13373
G1 X115.807 Y96.406 E7.17128
G1 X116.213 Y95.149 E7.21742
G1 X116.447 Y94.459 E7.24286
G1 X116.63 Y93.977 E7.26087
G1 X117.59 Y91.682 E7.34774
G1 X118.549 Y89.196 E7.4408
G1 X119.434 Y86.694 E7.53348
G1 X120.245 Y84.177 E7.62583
G1 X120.996 Y81.596 E7.71971
G1 X121.661 Y79.049 E7.81164
G1 X122.266 Y76.429 E7.90555
G1 X122.78 Y73.862 E7.99697
G1 X123.235 Y71.215 E8.09077
G1 X123.608 Y68.605 E8.18285
G1 X123.91 Y65.96 E8.27582
G1 X124.137 Y63.304 E8.36891
G1 X124.287 Y60.683 E8.46059
G1 X124.365 Y57.968 E8.55545
G1 X124.375 Y56.584 E8.60378
G1 X124.376 Y52.584 E8.74348
G1 X124.387 Y51.917 E8.76677
G1 X124.438 Y51.224 E8.79104
G1 X124.569 Y50.541 E8.81533
G1 X124.777 Y49.877 E8.83963
G1 X125.06 Y49.242 E8.86391
M204 S1800
G0 F3600 X125.477 Y49.351
M204 S500
G1 F2400 X125.83 Y48.78 E8.88735
G1 X126.248 Y48.255 E8.91079
G1 X126.725 Y47.783 E8.93422
G1 X127.255 Y47.372 E8.95765
G1 X127.83 Y47.027 E8.98106
G1 X128.442 Y46.752 E9.0045
G1 X129.082 Y46.552 E9.02791
G1 X129.742 Y46.43 E9.05135
G1 X130.411 Y46.387 E9.07476
G1 X131.249 Y46.446 E9.1041
G1 X132.194 Y46.585 E9.13746
G1 X133.35 Y46.776 E9.17838
G1 X134.045 Y46.901 E9.20304
G1 X134.697 Y47.059 E9.22647
G1 X135.258 Y47.264 E9.24733
G1 X136.062 Y47.608 E9.27787
G1 X137.216 Y48.122 E9.32199
G1 X137.838 Y48.409 E9.34591
G1 X138.429 Y48.726 E9.36933
G1 X138.931 Y49.074 E9.39066
G1 X139.603 Y49.596 E9.42038
G1 X140.589 Y50.385 E9.46448
G1 X141.144 Y50.842 E9.48959
G1 X141.635 Y51.298 E9.51299
G1 X142.031 Y51.76 E9.53424
G1 X142.503 Y52.376 E9.56134
G1 X143.326 Y53.482 E9.60949
G1 X143.716 Y54.021 E9.63272
G1 X144.076 Y54.587 E9.65615
G1 X144.348 Y55.146 E9.67786
G1 X144.673 Y55.924 E9.7073
G1 X145.159 Y57.126 E9.75258
G1 X145.404 Y57.76 E9.77632
G1 X145.608 Y58.399 E9.79974
G1 X145.724 Y58.981 E9.82047
G1 X145.84 Y59.787 E9.84891
G1 X146.009 Y61.106 E9.89535
G1 X146.087 Y61.786 E9.91925
G1 X146.114 Y62.099 E9.93022
G1 X146.173 Y63.119 E9.9659
G1 X146.219 Y64.158 E10.00222
G1 X146.411 Y66.806 E10.09494
G1 X146.684 Y69.503 E10.18961
G1 X147.028 Y72.15 E10.28283
G1 X147.443 Y74.762 E10.3752
G1 X147.936 Y77.392 E10.46864
G1 X148.498 Y79.976 E10.56099
G1 X149.14 Y82.58 E10.65466
G1 X149.861 Y85.178 E10.74882
G1 X150.641 Y87.707 E10.84124
G1 X151.505 Y90.255 E10.9352
G1 X152.421 Y92.723 E11.02714
G1 X153.15 Y94.546 E11.09571
G1 X153.329 Y95.041 E11.11409
G1 X153.562 Y95.778 E11.14108
G1 X153.942 Y97.029 E11.18674
G1 X154.15 Y97.747 E11.21285
G1 X154.337 Y98.684 E11.24622
G1 X154.418 Y99.412 E11.2718
G1 X154.557 Y100.837 E11.3218
G1 X154.615 Y101.529 E11.34605
G1 X154.627 Y102.29 E11.37263
G1 X154.611 Y102.539 E11.38134
G1 X154.554 Y103.197 E11.40441
G1 X154.413 Y104.636 E11.4549
G1 X154.334 Y105.332 E11.47937
G1 X154.146 Y106.268 E11.51271
G1 X153.944 Y106.963 E11.53798
G1 X153.543 Y108.283 E11.58616
G1 X153.321 Y108.98 E11.61171
G1 X153.104 Y109.571 E11.6337
G1 X152.299 Y111.591 E11.70964
G1 X151.372 Y114.119 E11.80367
G1 X150.528 Y116.637 E11.89641
G1 X149.75 Y119.197 E11.98986
G1 X149.053 Y121.752 E12.08234
G1 X148.416 Y124.37 E12.17644
G1 X147.854 Y127 E12.27036
G1 X147.381 Y129.586 E12.36217
G1 X146.969 Y132.248 E12.45624
G1 X146.639 Y134.871 E12.54857
G1 X146.379 Y137.536 E12.64208
G1 X146.132 Y141.481 E12.78012
G1 X146.095 Y142.145 E12.80335
G1 X146.05 Y142.586 E12.81883
G1 X145.823 Y144.337 E12.88049
G1 X145.726 Y145.009 E12.9042
G1 X145.591 Y145.666 E12.92763
G1 X145.405 Y146.237 E12.9486
G1 X145.112 Y146.992 E12.97688
G1 X144.611 Y148.229 E13.02349
G1 X144.341 Y148.867 E13.04768
G1 X144.043 Y149.468 E13.07111
G1 X143.726 Y149.961 E13.09158
G1 X143.241 Y150.634 E13.12055
G1 X142.446 Y151.7 E13.16699
G1 X142.041 Y152.229 E13.19026
G1 X141.603 Y152.737 E13.21368
G1 X141.15 Y153.153 E13.23516
G1 X140.497 Y153.69 E13.26469
G1 X139.504 Y154.483 E13.30907
G1 X138.945 Y154.918 E13.33381
G1 X138.392 Y155.298 E13.35724
G1 X137.846 Y155.587 E13.37881
G1 X137.116 Y155.923 E13.40688
G1 X135.914 Y156.458 E13.45282
G1 X135.273 Y156.732 E13.47717
G1 X134.641 Y156.958 E13.50061
G1 X134.061 Y157.095 E13.52142
G1 X133.25 Y157.241 E13.5502
G1 X131.91 Y157.461 E13.59762
G1 X131.274 Y157.556 E13.62008
G1 X130.606 Y157.616 E13.6435
G1 X129.935 Y157.595 E13.66695
G1 X129.272 Y157.495 E13.69037
G1 X128.625 Y157.317 E13.7138
G1 X128.004 Y157.063 E13.73723
G1 X127.418 Y156.737 E13.76065
G1 X126.874 Y156.343 E13.78411
G1 X126.382 Y155.888 E13.80751
G1 X125.947 Y155.378 E13.83092
G1 X125.575 Y154.819 E13.85437
G1 X125.273 Y154.22 E13.8778
G1 X125.045 Y153.589 E13.90123
G1 X124.892 Y152.936 E13.92465
G1 X124.813 Y152.091 E13.95429
G1 X124.795 Y151.061 E13.99027
G1 X124.795 Y147.385 E14.11864
G1 X124.757 Y144.734 E14.21123
G1 X124.643 Y142.049 E14.30509
G1 X124.455 Y139.399 E14.39787
G1 X124.188 Y136.7 E14.49258
G1 X123.856 Y134.108 E14.58384
G1 X123.436 Y131.433 E14.67841
G1 X122.952 Y128.832 E14.7708
G1 X122.391 Y126.225 E14.86393
G1 X121.751 Y123.612 E14.95788
G1 X121.046 Y121.048 E15.05075
G1 X120.27 Y118.514 E15.1433
G1 X119.406 Y115.953 E15.23769
G1 X118.495 Y113.485 E15.32957
G1 X117.479 Y110.954 E15.42481
G1 X117.307 Y110.555 E15.43999
G1 X117.016 Y109.855 E15.46646
G1 X116.888 Y109.516 E15.47912
G1 X116.526 Y108.454 E15.5183
G1 X116.116 Y107.182 E15.56497
G1 X115.924 Y106.557 E15.58781
G1 X115.718 Y105.589 E15.62237
G1 X115.579 Y104.45 E15.66244
G1 X115.452 Y103.218 E15.70569
G1 X115.392 Y102.551 E15.72908
G1 X115.389 Y101.567 E15.76345
G1 X115.485 Y100.46 E15.80225
G1 X115.613 Y99.229 E15.84547
G1 X115.695 Y98.529 E15.87009
G1 X115.897 Y97.557 E15.90476
G1 X116.207 Y96.535 E15.94205
G1 X116.61 Y95.284 E15.98795
G1 X116.844 Y94.594 E16.0134
G1 X117.052 Y94.056 E16.03354
G1 X117.975 Y91.851 E16.11702
G1 X118.942 Y89.344 E16.21086
G1 X119.835 Y86.82 E16.30436
G1 X120.65 Y84.289 E16.39722
G1 X121.392 Y81.742 E16.48987
G1 X122.069 Y79.147 E16.58353
G1 X122.681 Y76.497 E16.67851
G1 X123.192 Y73.947 E16.76934
G1 X123.652 Y71.271 E16.86416
G1 X124.022 Y68.682 E16.9555
G1 X124.327 Y66.005 E17.04959
G1 X124.556 Y63.329 E17.14339
G1 X124.707 Y60.684 E17.23591
G1 X124.785 Y57.983 E17.33027
G1 X124.795 Y56.588 E17.37899
G1 X124.796 Y52.591 E17.51858
G1 X124.807 Y51.924 E17.54188
G1 X124.858 Y51.255 E17.56531
G1 X124.988 Y50.597 E17.58873
G1 X125.196 Y49.959 E17.61217
G1 X125.477 Y49.351 E17.63556
M204 S1800
G0 F3600 X125.895 Y49.463
M204 S500
G1 F2400 X126.245 Y48.922 E17.65806
G1 X126.66 Y48.427 E17.68062
G1 X127.133 Y47.988 E17.70316
G1 X127.656 Y47.611 E17.72567
G1 X128.222 Y47.301 E17.74821
G1 X128.822 Y47.063 E17.77075
G1 X129.447 Y46.902 E17.79329
G1 X130.087 Y46.819 E17.81583
G1 X130.732 Y46.815 E17.83836
G1 X131.188 Y46.862 E17.85437
G1 X132.126 Y46.999 E17.88747
G1 X133.275 Y47.189 E17.92814
G1 X133.97 Y47.314 E17.9528
G1 X134.597 Y47.468 E17.97535
G1 X135.093 Y47.65 E17.9938
G1 X135.891 Y47.991 E18.02411
G1 X137.04 Y48.503 E18.06804
G1 X137.662 Y48.79 E18.09196
G1 X138.23 Y49.096 E18.11449
G1 X138.674 Y49.406 E18.1334
G1 X139.341 Y49.924 E18.1629
G1 X140.322 Y50.709 E18.20678
G1 X140.877 Y51.166 E18.23188
G1 X141.349 Y51.606 E18.25442
G1 X141.698 Y52.015 E18.2732
G1 X142.166 Y52.626 E18.30007
G1 X142.986 Y53.728 E18.34804
G1 X143.376 Y54.267 E18.37128
G1 X143.721 Y54.812 E18.39381
G1 X143.961 Y55.309 E18.41308
G1 X144.284 Y56.081 E18.44231
G1 X144.767 Y57.277 E18.48735
G1 X145.012 Y57.911 E18.51109
G1 X145.207 Y58.526 E18.53362
G1 X145.308 Y59.041 E18.55195
G1 X145.423 Y59.84 E18.58014
G1 X145.592 Y61.154 E18.62641
G1 X145.67 Y61.834 E18.65031
G1 X145.695 Y62.124 E18.66047
G1 X145.754 Y63.137 E18.69591
G1 X145.801 Y64.207 E18.73332
G1 X145.993 Y66.847 E18.82576
G1 X146.267 Y69.561 E18.92102
G1 X146.606 Y72.165 E19.01273
G1 X147.03 Y74.837 E19.10721
G1 X147.528 Y77.49 E19.20148
G1 X148.094 Y80.091 E19.29444
G1 X148.735 Y82.692 E19.38799
G1 X149.451 Y85.271 E19.48146
G1 X150.237 Y87.823 E19.57472
G1 X151.109 Y90.393 E19.6695
G1 X152.041 Y92.904 E19.76304
G1 X152.76 Y94.702 E19.83066
G1 X152.928 Y95.168 E19.84796
G1 X153.16 Y95.9 E19.87478
G1 X153.538 Y97.146 E19.92025
G1 X153.746 Y97.864 E19.94636
G1 X153.919 Y98.731 E19.97723
G1 X154 Y99.453 E20.0026
G1 X154.139 Y100.872 E20.0524
G1 X154.197 Y101.564 E20.07665
G1 X154.208 Y102.268 E20.10124
G1 X154.193 Y102.503 E20.10946
G1 X154.136 Y103.157 E20.13239
G1 X153.996 Y104.589 E20.18264
G1 X153.917 Y105.285 E20.2071
G1 X153.743 Y106.151 E20.23795
G1 X153.542 Y106.841 E20.26305
G1 X153.143 Y108.155 E20.311
G1 X152.921 Y108.852 E20.33655
G1 X152.712 Y109.42 E20.35769
G1 X151.901 Y111.454 E20.43416
G1 X150.985 Y113.953 E20.52711
G1 X150.123 Y116.525 E20.62184
G1 X149.348 Y119.075 E20.71492
G1 X148.647 Y121.644 E20.80792
G1 X148.003 Y124.293 E20.90312
G1 X147.445 Y126.906 E20.99643
G1 X146.966 Y129.52 E21.08924
G1 X146.552 Y132.196 E21.18381
G1 X146.218 Y134.848 E21.27716
G1 X145.963 Y137.471 E21.36919
G1 X145.716 Y141.408 E21.50695
G1 X145.677 Y142.104 E21.5313
G1 X145.633 Y142.532 E21.54633
G1 X145.408 Y144.277 E21.60777
G1 X145.311 Y144.949 E21.63148
G1 X145.179 Y145.581 E21.65403
G1 X145.013 Y146.085 E21.67256
G1 X144.722 Y146.834 E21.70062
G1 X144.224 Y148.066 E21.74703
G1 X143.954 Y148.704 E21.77122
G1 X143.666 Y149.281 E21.79375
G1 X143.385 Y149.716 E21.81183
G1 X142.904 Y150.383 E21.84055
G1 X142.113 Y151.445 E21.8868
G1 X141.708 Y151.974 E21.91006
G1 X141.285 Y152.461 E21.93259
G1 X140.883 Y152.829 E21.95162
G1 X140.235 Y153.362 E21.98093
G1 X139.246 Y154.152 E22.02513
G1 X138.687 Y154.587 E22.04987
G1 X138.154 Y154.951 E22.07241
G1 X137.67 Y155.206 E22.09151
G1 X136.946 Y155.539 E22.11934
G1 X135.749 Y156.072 E22.1651
G1 X135.108 Y156.346 E22.18945
G1 X134.5 Y156.562 E22.21198
G1 X133.986 Y156.682 E22.23042
G1 X133.182 Y156.827 E22.25895
G1 X131.848 Y157.046 E22.30616
G1 X131.212 Y157.141 E22.32862
G1 X130.569 Y157.196 E22.35115
G1 X129.924 Y157.172 E22.37369
G1 X129.287 Y157.068 E22.39623
G1 X128.668 Y156.887 E22.41876
G1 X128.076 Y156.63 E22.4413
G1 X127.52 Y156.302 E22.46384
G1 X127.009 Y155.907 E22.4864
G1 X126.551 Y155.453 E22.50892
G1 X126.153 Y154.945 E22.53145
G1 X125.82 Y154.393 E22.55397
G1 X125.558 Y153.803 E22.57651
G1 X125.371 Y153.185 E22.59906
G1 X125.262 Y152.549 E22.6216
G1 X125.233 Y152.084 E22.63787
G1 X125.215 Y151.061 E22.6736
G1 X125.215 Y147.385 E22.80198
G1 X125.177 Y144.71 E22.89541
G1 X125.064 Y142.039 E22.98877
G1 X124.874 Y139.363 E23.08246
G1 X124.608 Y136.675 E23.17679
G1 X124.268 Y134.024 E23.27013
G1 X123.85 Y131.36 E23.3643
G1 X123.362 Y128.735 E23.45755
G1 X122.805 Y126.147 E23.55
