;FLAVOR:Marlin
;TIME:865
;Filament used: 0.367611m
;Layer height: 0.2
;MINX:124.123
;MINY:91.123
;MINZ:0.2
;MAXX:145.877
;MAXY:112.877
;MAXZ:31
;Generated with Cura_SteamEngine 4.9.0
M140 S65
M105
M190 S65
M104 S215
M105
M109 S215
M82 ;absolute extrusion mode
G90 ; use absolute coordinates
M140 S[first_layer_bed_temperature] ; set bed temp
M190 S[first_layer_bed_temperature] ; wait for bed temp
G28 ; home all without mesh bed level
G29 ; mesh bed leveling/ABL
M104 S[first_layer_temperature] ; set extruder temp
G92 E0.0
G1 Y-2.0 X150 F2400G1 Z3 F720
M109 S[first_layer_temperature] ; wait for extruder temp
G1 X150 F1000
G1 Z0.2 F720
G1 X80.0 E8.0 F900
G1 X20.0 E10.0 F700
G92 E0.0
M221 S95 ; set flow

G92 E0
G92 E0
G1 F5100 E-4
;LAYER_COUNT:155
;LAYER:0
M106 S255
M204 S1800
G0 F3600 X126.756 Y94.928 Z0.2
M204 S500
;TYPE:SKIRT
G1 F2040 E0
G1 F2400 X127.246 Y94.371 E0.02591
G1 X127.885 Y93.796 E0.05593
G1 X128.397 Y93.39 E0.07875
G1 X128.885 Y93.024 E0.10005
G1 X129.504 Y92.615 E0.12596
G1 X130.23 Y92.246 E0.1544
G1 X130.853 Y91.974 E0.17814
G1 X131.39 Y91.756 E0.19838
G1 X132.093 Y91.519 E0.22429
G1 X132.911 Y91.344 E0.25351
G1 X133.574 Y91.244 E0.27692
G1 X134.19 Y91.169 E0.29859
G1 X134.93 Y91.123 E0.32449
G1 X135.761 Y91.167 E0.35355
G1 X136.429 Y91.243 E0.37703
G1 X136.998 Y91.323 E0.39709
G1 X137.726 Y91.469 E0.42302
G1 X138.551 Y91.737 E0.45332
G1 X139.168 Y91.982 E0.4765
G1 X139.689 Y92.203 E0.49627
G1 X140.355 Y92.532 E0.52221
G1 X141.083 Y93.005 E0.55253
G1 X141.635 Y93.415 E0.57654
G1 X142.079 Y93.762 E0.59622
G1 X142.635 Y94.253 E0.62213
G1 X143.19 Y94.87 E0.65111
G1 X143.597 Y95.381 E0.67392
G1 X143.961 Y95.863 E0.69502
G1 X144.373 Y96.481 E0.72095
G1 X144.759 Y97.237 E0.7506
G1 X145.014 Y97.823 E0.77292
G1 X145.241 Y98.384 E0.79405
G1 X145.479 Y99.087 E0.81997
G1 X145.657 Y99.916 E0.84958
G1 X145.759 Y100.595 E0.87356
G1 X145.83 Y101.174 E0.89393
G1 X145.877 Y101.915 E0.91986
G1 X145.834 Y102.749 E0.94903
G1 X145.759 Y103.414 E0.9724
G1 X145.678 Y103.992 E0.99278
G1 X145.532 Y104.72 E1.01871
G1 X145.272 Y105.521 E1.04812
G1 X145.023 Y106.154 E1.07188
G1 X144.798 Y106.686 E1.09205
G1 X144.469 Y107.352 E1.11799
G1 X143.999 Y108.076 E1.14814
G1 X143.576 Y108.646 E1.17293
G1 X143.233 Y109.084 E1.19235
G1 X142.741 Y109.64 E1.21828
G1 X142.116 Y110.202 E1.24764
G1 X141.612 Y110.602 E1.27011
G1 X141.125 Y110.969 E1.2914
G1 X140.506 Y111.379 E1.31733
G1 X139.77 Y111.754 E1.34618
G1 X139.147 Y112.026 E1.36992
G1 X138.61 Y112.244 E1.39016
G1 X137.907 Y112.481 E1.41607
G1 X137.089 Y112.656 E1.44528
G1 X136.426 Y112.756 E1.4687
G1 X135.81 Y112.831 E1.49037
G1 X135.07 Y112.877 E1.51626
G1 X134.239 Y112.833 E1.54533
G1 X133.571 Y112.757 E1.5688
G1 X133.002 Y112.677 E1.58887
G1 X132.274 Y112.531 E1.6148
G1 X131.449 Y112.263 E1.64509
G1 X130.832 Y112.018 E1.66828
G1 X130.311 Y111.797 E1.68804
G1 X129.645 Y111.468 E1.71399
G1 X128.917 Y110.995 E1.7443
G1 X128.365 Y110.585 E1.76832
G1 X127.93 Y110.246 E1.78758
G1 X127.373 Y109.755 E1.81351
G1 X126.803 Y109.123 E1.84323
G1 X126.397 Y108.612 E1.86602
G1 X126.032 Y108.127 E1.88722
G1 X125.622 Y107.509 E1.91312
G1 X125.244 Y106.767 E1.9422
G1 X124.981 Y106.164 E1.96518
G1 X124.756 Y105.61 E1.98606
G1 X124.519 Y104.907 E2.01197
G1 X124.343 Y104.085 E2.04133
G1 X124.244 Y103.426 E2.0646
G1 X124.172 Y102.842 E2.08515
G1 X124.123 Y102.101 E2.11108
G1 X124.167 Y101.25 E2.14084
G1 X124.244 Y100.57 E2.16474
G1 X124.322 Y100.01 E2.18449
G1 X124.468 Y99.282 E2.21042
G1 X124.728 Y98.479 E2.23989
G1 X124.977 Y97.846 E2.26365
G1 X125.202 Y97.314 E2.28382
G1 X125.531 Y96.648 E2.30976
G1 X126.001 Y95.924 E2.33991
G1 X126.424 Y95.354 E2.3647
G1 X126.756 Y94.928 E2.38356
M204 S1800
G0 F3600 X127.086 Y95.188
M204 S500
G1 F2400 X127.562 Y94.649 E2.40867
G1 X128.146 Y94.125 E2.43607
G1 X128.658 Y93.719 E2.45889
G1 X129.135 Y93.362 E2.4797
G1 X129.735 Y92.966 E2.50481
G1 X130.398 Y92.63 E2.53077
G1 X131.021 Y92.358 E2.55451
G1 X131.546 Y92.146 E2.57428
G1 X132.227 Y91.917 E2.59937
G1 X132.974 Y91.759 E2.62603
G1 X133.637 Y91.659 E2.64945
G1 X134.238 Y91.586 E2.67059
G1 X134.956 Y91.543 E2.69571
G1 X135.713 Y91.584 E2.72219
G1 X136.381 Y91.66 E2.74567
G1 X136.938 Y91.738 E2.76531
G1 X137.643 Y91.881 E2.79043
G1 X138.396 Y92.128 E2.81811
G1 X139.013 Y92.373 E2.84129
G1 X139.524 Y92.589 E2.86067
G1 X140.168 Y92.909 E2.88578
G1 X140.833 Y93.342 E2.91349
G1 X141.385 Y93.752 E2.93751
G1 X141.818 Y94.091 E2.95671
G1 X142.356 Y94.568 E2.98182
G1 X142.862 Y95.132 E3.00828
G1 X143.269 Y95.643 E3.0311
G1 X143.625 Y96.115 E3.05175
G1 X144.023 Y96.714 E3.07686
G1 X144.374 Y97.404 E3.1039
G1 X144.629 Y97.99 E3.12622
G1 X144.851 Y98.54 E3.14693
G1 X145.081 Y99.222 E3.17206
G1 X145.241 Y99.979 E3.19909
G1 X145.343 Y100.658 E3.22306
G1 X145.413 Y101.223 E3.24295
G1 X145.457 Y101.941 E3.26807
G1 X145.416 Y102.702 E3.29468
G1 X145.341 Y103.367 E3.31805
G1 X145.262 Y103.932 E3.33798
G1 X145.119 Y104.636 E3.36307
G1 X144.881 Y105.367 E3.38991
G1 X144.632 Y106 E3.41367
G1 X144.412 Y106.521 E3.43342
G1 X144.092 Y107.165 E3.45853
G1 X143.662 Y107.826 E3.48607
G1 X143.239 Y108.396 E3.51086
G1 X142.904 Y108.823 E3.52981
G1 X142.427 Y109.361 E3.55492
G1 X141.855 Y109.873 E3.58173
G1 X141.351 Y110.273 E3.60421
G1 X140.874 Y110.632 E3.62505
G1 X140.274 Y111.028 E3.65016
G1 X139.602 Y111.37 E3.67649
G1 X138.979 Y111.642 E3.70023
G1 X138.454 Y111.854 E3.72001
G1 X137.773 Y112.083 E3.7451
G1 X137.026 Y112.241 E3.77176
G1 X136.363 Y112.341 E3.79518
G1 X135.762 Y112.414 E3.81632
G1 X135.044 Y112.457 E3.84144
G1 X134.287 Y112.416 E3.86792
G1 X133.619 Y112.34 E3.8914
G1 X133.062 Y112.262 E3.91104
G1 X132.357 Y112.119 E3.93616
G1 X131.604 Y111.872 E3.96384
G1 X130.987 Y111.627 E3.98702
G1 X130.476 Y111.411 E4.0064
G1 X129.832 Y111.091 E4.03151
G1 X129.167 Y110.658 E4.05922
G1 X128.615 Y110.248 E4.08324
G1 X128.19 Y109.916 E4.10207
G1 X127.651 Y109.44 E4.12718
G1 X127.132 Y108.862 E4.15431
G1 X126.726 Y108.351 E4.1771
G1 X126.369 Y107.876 E4.19786
G1 X125.972 Y107.277 E4.22295
G1 X125.629 Y106.6 E4.24946
G1 X125.366 Y105.997 E4.27243
G1 X125.146 Y105.455 E4.29286
G1 X124.918 Y104.773 E4.31797
G1 X124.759 Y104.022 E4.34478
G1 X124.66 Y103.363 E4.36805
G1 X124.589 Y102.792 E4.38815
G1 X124.543 Y102.074 E4.41327
G1 X124.584 Y101.297 E4.44045
G1 X124.661 Y100.617 E4.46435
G1 X124.737 Y100.07 E4.48363
G1 X124.88 Y99.366 E4.50872
G1 X125.119 Y98.633 E4.53565
G1 X125.368 Y98 E4.5594
G1 X125.588 Y97.479 E4.57915
G1 X125.908 Y96.835 E4.60427
G1 X126.338 Y96.174 E4.63181
G1 X126.761 Y95.604 E4.65659
G1 X127.086 Y95.188 E4.67503
M204 S1800
G0 F3600 X127.416 Y95.448
M204 S500
G1 F2400 X127.877 Y94.928 E4.6993
G1 X128.407 Y94.455 E4.72411
G1 X128.919 Y94.049 E4.74693
G1 X129.385 Y93.699 E4.76728
G1 X129.966 Y93.318 E4.79154
G1 X130.566 Y93.015 E4.81502
G1 X131.189 Y92.743 E4.83876
G1 X131.701 Y92.536 E4.85805
G1 X132.361 Y92.316 E4.88234
G1 X133.037 Y92.175 E4.90646
G1 X133.7 Y92.075 E4.92987
G1 X134.286 Y92.003 E4.95049
G1 X134.98 Y91.963 E4.97477
G1 X135.666 Y92.002 E4.99877
G1 X136.334 Y92.078 E5.02225
G1 X136.878 Y92.154 E5.04143
G1 X137.559 Y92.293 E5.0657
G1 X138.241 Y92.518 E5.09078
G1 X138.858 Y92.763 E5.11397
G1 X139.358 Y92.975 E5.13293
G1 X139.981 Y93.285 E5.15723
G1 X140.582 Y93.679 E5.18233
G1 X141.134 Y94.089 E5.20634
G1 X141.557 Y94.42 E5.2251
G1 X142.077 Y94.883 E5.24942
G1 X142.533 Y95.394 E5.27334
G1 X142.94 Y95.905 E5.29615
G1 X143.288 Y96.366 E5.31632
G1 X143.672 Y96.946 E5.34061
G1 X143.989 Y97.572 E5.36512
G1 X144.244 Y98.158 E5.38744
G1 X144.461 Y98.696 E5.4077
G1 X144.682 Y99.355 E5.43197
G1 X144.826 Y100.041 E5.45645
G1 X144.928 Y100.72 E5.48043
G1 X144.996 Y101.272 E5.49985
G1 X145.037 Y101.966 E5.52413
G1 X144.999 Y102.655 E5.54823
G1 X144.924 Y103.32 E5.5716
G1 X144.847 Y103.871 E5.59103
G1 X144.707 Y104.552 E5.61531
G1 X144.49 Y105.214 E5.63964
G1 X144.241 Y105.847 E5.6634
G1 X144.026 Y106.355 E5.68266
G1 X143.716 Y106.977 E5.70693
G1 X143.324 Y107.575 E5.7319
G1 X142.901 Y108.145 E5.75669
G1 X142.575 Y108.563 E5.7752
G1 X142.112 Y109.082 E5.79949
G1 X141.594 Y109.544 E5.82373
G1 X141.09 Y109.944 E5.8462
G1 X140.623 Y110.295 E5.86661
G1 X140.042 Y110.677 E5.89089
G1 X139.434 Y110.985 E5.91469
G1 X138.811 Y111.257 E5.93843
G1 X138.299 Y111.464 E5.95772
G1 X137.639 Y111.684 E5.98201
G1 X136.963 Y111.825 E6.00613
G1 X136.3 Y111.925 E6.02955
G1 X135.714 Y111.997 E6.05016
G1 X135.02 Y112.037 E6.07444
G1 X134.334 Y111.998 E6.09844
G1 X133.666 Y111.922 E6.12192
G1 X133.122 Y111.846 E6.1411
G1 X132.441 Y111.707 E6.16537
G1 X131.759 Y111.482 E6.19045
G1 X131.142 Y111.237 E6.21364
G1 X130.642 Y111.025 E6.2326
G1 X130.019 Y110.715 E6.2569
G1 X129.418 Y110.321 E6.282
G1 X128.866 Y109.911 E6.30602
G1 X128.45 Y109.586 E6.32445
G1 X127.93 Y109.125 E6.34872
G1 X127.461 Y108.601 E6.37328
G1 X127.055 Y108.09 E6.39607
G1 X126.706 Y107.626 E6.41635
G1 X126.324 Y107.045 E6.44063
G1 X126.014 Y106.432 E6.46462
G1 X125.751 Y105.829 E6.4876
G1 X125.536 Y105.3 E6.50754
G1 X125.317 Y104.64 E6.53182
G1 X125.174 Y103.96 E6.55609
G1 X125.075 Y103.301 E6.57936
G1 X125.006 Y102.742 E6.59903
G1 X124.963 Y102.048 E6.62332
G1 X125.001 Y101.344 E6.64794
G1 X125.078 Y100.664 E6.67184
G1 X125.153 Y100.131 E6.69063
G1 X125.292 Y99.449 E6.71494
G1 X125.51 Y98.786 E6.73932
G1 X125.759 Y98.153 E6.76307
G1 X125.974 Y97.645 E6.78233
G1 X126.284 Y97.023 E6.80661
G1 X126.676 Y96.425 E6.83158
G1 X127.099 Y95.855 E6.85637
G1 X127.416 Y95.448 E6.87438
M204 S1800
G0 F3600 X127.745 Y95.709
M204 S500
G1 F2400 X128.191 Y95.208 E6.89781
G1 X128.668 Y94.784 E6.92009
G1 X129.18 Y94.378 E6.94291
G1 X129.635 Y94.037 E6.96277
G1 X130.197 Y93.67 E6.98621
G1 X130.734 Y93.4 E7.0072
G1 X131.357 Y93.128 E7.03094
G1 X131.856 Y92.926 E7.04974
G1 X132.493 Y92.716 E7.07317
G1 X133.099 Y92.59 E7.09478
G1 X133.762 Y92.49 E7.1182
G1 X134.334 Y92.42 E7.13833
G1 X135.004 Y92.383 E7.16176
G1 X135.618 Y92.419 E7.18324
G1 X136.286 Y92.495 E7.20672
G1 X136.817 Y92.569 E7.22544
G1 X137.474 Y92.705 E7.24887
G1 X138.086 Y92.908 E7.27139
G1 X138.703 Y93.153 E7.29458
G1 X139.193 Y93.361 E7.31317
G1 X139.793 Y93.662 E7.33661
G1 X140.332 Y94.016 E7.35913
G1 X140.884 Y94.426 E7.38314
G1 X141.296 Y94.749 E7.40142
G1 X141.797 Y95.197 E7.4249
G1 X142.205 Y95.655 E7.44632
G1 X142.612 Y96.166 E7.46913
G1 X142.952 Y96.617 E7.48886
G1 X143.321 Y97.178 E7.51231
G1 X143.603 Y97.74 E7.53427
G1 X143.858 Y98.326 E7.55658
G1 X144.071 Y98.852 E7.5764
G1 X144.283 Y99.488 E7.59982
G1 X144.411 Y100.104 E7.62179
G1 X144.513 Y100.783 E7.64577
G1 X144.579 Y101.321 E7.6647
G1 X144.617 Y101.991 E7.68813
G1 X144.582 Y102.608 E7.70971
G1 X144.507 Y103.273 E7.73309
G1 X144.431 Y103.81 E7.75203
G1 X144.295 Y104.467 E7.77546
G1 X144.099 Y105.06 E7.79727
G1 X143.85 Y105.693 E7.82102
G1 X143.64 Y106.19 E7.83987
G1 X143.339 Y106.789 E7.86328
G1 X142.987 Y107.325 E7.88567
G1 X142.564 Y107.895 E7.91046
G1 X142.245 Y108.302 E7.92852
G1 X141.798 Y108.802 E7.95194
G1 X141.333 Y109.215 E7.97366
G1 X140.829 Y109.615 E7.99613
G1 X140.373 Y109.958 E8.01606
G1 X139.811 Y110.325 E8.0395
G1 X139.266 Y110.6 E8.06082
G1 X138.643 Y110.872 E8.08456
G1 X138.144 Y111.074 E8.10336
G1 X137.507 Y111.284 E8.12678
G1 X136.901 Y111.41 E8.1484
G1 X136.238 Y111.51 E8.17182
G1 X135.666 Y111.58 E8.19194
G1 X134.996 Y111.617 E8.21538
G1 X134.382 Y111.581 E8.23686
G1 X133.714 Y111.505 E8.26033
G1 X133.183 Y111.431 E8.27906
G1 X132.526 Y111.295 E8.30249
G1 X131.914 Y111.092 E8.32501
G1 X131.297 Y110.847 E8.34819
G1 X130.807 Y110.639 E8.36678
G1 X130.207 Y110.338 E8.39022
G1 X129.668 Y109.984 E8.41274
G1 X129.116 Y109.574 E8.43676
G1 X128.71 Y109.257 E8.45475
G1 X128.21 Y108.811 E8.47815
G1 X127.79 Y108.339 E8.50021
G1 X127.384 Y107.828 E8.523
G1 X127.043 Y107.375 E8.5428
G1 X126.675 Y106.814 E8.56624
G1 X126.398 Y106.264 E8.58774
G1 X126.135 Y105.661 E8.61072
G1 X125.927 Y105.144 E8.63018
G1 X125.716 Y104.507 E8.65361
G1 X125.589 Y103.897 E8.67537
G1 X125.49 Y103.238 E8.69865
G1 X125.423 Y102.692 E8.71786
G1 X125.383 Y102.023 E8.74126
G1 X125.419 Y101.392 E8.76333
G1 X125.496 Y100.712 E8.78723
G1 X125.569 Y100.191 E8.80561
G1 X125.704 Y99.534 E8.82903
G1 X125.901 Y98.94 E8.85089
G1 X126.15 Y98.307 E8.87464
G1 X126.36 Y97.81 E8.89348
G1 X126.661 Y97.211 E8.91689
G1 X127.013 Y96.675 E8.93929
G1 X127.436 Y96.105 E8.96408
G1 X127.745 Y95.709 E8.98162
M204 S1800
G0 F3600 X128.075 Y95.969
M204 S500
G1 F2400 X128.505 Y95.488 E9.00415
G1 X128.929 Y95.113 E9.02392
G1 X129.441 Y94.707 E9.04674
G1 X129.885 Y94.374 E9.06612
G1 X130.426 Y94.023 E9.08864
G1 X130.902 Y93.785 E9.10723
G1 X131.525 Y93.513 E9.13097
G1 X132.012 Y93.317 E9.1493
G1 X132.625 Y93.115 E9.17184
G1 X133.162 Y93.005 E9.19099
G1 X133.825 Y92.905 E9.2144
G1 X134.383 Y92.838 E9.23403
G1 X135.027 Y92.803 E9.25655
G1 X135.571 Y92.836 E9.27559
G1 X136.239 Y92.912 E9.29906
G1 X136.757 Y92.985 E9.31733
G1 X137.389 Y93.117 E9.33988
G1 X137.931 Y93.299 E9.35985
G1 X138.677 Y93.597 E9.3879
G1 X139.027 Y93.747 E9.4012
G1 X139.604 Y94.038 E9.42377
G1 X140.082 Y94.353 E9.44376
G1 X140.634 Y94.763 E9.46777
G1 X141.036 Y95.079 E9.48563
G1 X141.516 Y95.51 E9.50816
G1 X141.876 Y95.917 E9.52714
G1 X142.283 Y96.428 E9.54995
G1 X142.615 Y96.869 E9.56923
G1 X142.969 Y97.409 E9.59178
G1 X143.218 Y97.907 E9.61122
G1 X143.473 Y98.493 E9.63354
G1 X143.681 Y99.007 E9.65291
G1 X143.883 Y99.62 E9.67545
G1 X143.995 Y100.166 E9.69491
G1 X144.097 Y100.845 E9.71889
G1 X144.162 Y101.37 E9.73737
G1 X144.197 Y102.014 E9.75989
G1 X144.164 Y102.561 E9.77903
G1 X144.089 Y103.226 E9.8024
G1 X144.016 Y103.75 E9.82087
G1 X143.883 Y104.382 E9.84343
G1 X143.708 Y104.906 E9.86272
G1 X143.459 Y105.539 E9.88648
G1 X143.254 Y106.024 E9.90487
G1 X142.963 Y106.6 E9.9274
G1 X142.65 Y107.075 E9.94727
G1 X142.227 Y107.645 E9.97206
G1 X141.916 Y108.041 E9.98964
G1 X141.485 Y108.521 E10.01217
G1 X141.072 Y108.886 E10.03142
G1 X140.568 Y109.286 E10.05389
G1 X140.122 Y109.621 E10.07337
G1 X139.581 Y109.973 E10.09591
G1 X139.098 Y110.215 E10.11478
G1 X138.475 Y110.487 E10.13852
G1 X137.988 Y110.683 E10.15685
G1 X137.375 Y110.885 E10.17939
G1 X136.838 Y110.995 E10.19854
G1 X136.175 Y111.095 E10.22195
G1 X135.617 Y111.162 E10.24158
G1 X134.973 Y111.197 E10.2641
G1 X134.429 Y111.164 E10.28314
G1 X133.761 Y111.088 E10.30662
G1 X133.243 Y111.015 E10.32488
G1 X132.611 Y110.883 E10.34743
G1 X132.069 Y110.701 E10.3674
G1 X131.323 Y110.403 E10.39545
G1 X130.973 Y110.253 E10.40875
G1 X130.396 Y109.962 E10.43132
G1 X129.918 Y109.647 E10.45131
G1 X129.366 Y109.237 E10.47533
G1 X128.971 Y108.927 E10.49286
G1 X128.49 Y108.497 E10.51539
G1 X128.119 Y108.078 E10.53494
G1 X127.713 Y107.567 E10.55773
G1 X127.38 Y107.124 E10.57708
G1 X127.027 Y106.584 E10.59962
G1 X126.783 Y106.096 E10.61867
G1 X126.52 Y105.493 E10.64164
G1 X126.317 Y104.989 E10.66062
G1 X126.116 Y104.376 E10.68315
G1 X126.005 Y103.835 E10.70244
G1 X125.906 Y103.176 E10.72571
G1 X125.84 Y102.642 E10.7445
G1 X125.803 Y101.998 E10.76703
G1 X125.836 Y101.439 E10.78658
G1 X125.913 Y100.759 E10.81048
G1 X125.984 Y100.252 E10.82836
G1 X126.116 Y99.62 E10.85091
G1 X126.292 Y99.094 E10.87028
G1 X126.541 Y98.461 E10.89403
G1 X126.746 Y97.976 E10.91242
G1 X127.037 Y97.4 E10.93496
G1 X127.35 Y96.925 E10.95483
G1 X127.773 Y96.355 E10.97961
G1 X128.075 Y95.969 E10.99673
M204 S1800
G1 F5100 E6.99673
;MESH:tubo.stl
G0 F3600 X131.613 Y98.812
G0 X132.479 Y99.479
G0 X132.922 Y99.92
M204 S500
;TYPE:WALL-INNER
G1 F2040 E10.99673
G1 F1200 X133.532 Y99.452 E11.02358
G1 X134.243 Y99.158 E11.05045
G1 X135.002 Y99.058 E11.07719
G1 X135.758 Y99.158 E11.10382
G1 X136.472 Y99.455 E11.13082
G1 X137.078 Y99.922 E11.15754
G1 X137.548 Y100.532 E11.18444
G1 X137.844 Y101.244 E11.21136
G1 X137.942 Y101.998 E11.23792
G1 X137.844 Y102.756 E11.26461
G1 X137.546 Y103.471 E11.29166
G1 X137.078 Y104.08 E11.31849
G1 X136.468 Y104.548 E11.34534
G1 X135.757 Y104.842 E11.37221
G1 X134.998 Y104.942 E11.39894
G1 X134.242 Y104.842 E11.42557
G1 X133.528 Y104.545 E11.45258
G1 X132.922 Y104.078 E11.4793
G1 X132.452 Y103.468 E11.50619
G1 X132.16 Y102.762 E11.53287
G1 X132.058 Y101.997 E11.55982
G1 X132.156 Y101.244 E11.58634
