;FLAVOR:Marlin
;TIME:2422
;Filament used: 2.27713m
;Layer height: 0.2
;MINX:103.949
;MINY:66.917
;MINZ:0.2
;MAXX:166.051
;MAXY:137.083
;MAXZ:27.4
;Generated with Cura_SteamEngine 4.9.0
M140 S65
M105
M190 S65
M104 S215
M105
M109 S215
M82 ;absolute extrusion mode
G90 ; use absolute coordinates
M140 S[first_layer_bed_temperature] ; set bed temp
M190 S[first_layer_bed_temperature] ; wait for bed temp
G28 ; home all without mesh bed level
G29 ; mesh bed leveling/ABL
M104 S[first_layer_temperature] ; set extruder temp
G92 E0.0
G1 Y-2.0 X150 F2400G1 Z3 F720
M109 S[first_layer_temperature] ; wait for extruder temp
G1 X150 F1000
G1 Z0.2 F720
G1 X80.0 E8.0 F900
G1 X20.0 E10.0 F700
G92 E0.0
M221 S95 ; set flow

G92 E0
G92 E0
G1 F5100 E-4
;LAYER_COUNT:105
;LAYER:0
M106 S255
M204 S1800
G0 F3600 X105.395 Y69.062 Z0.2
M204 S500
;TYPE:SKIRT
G1 F2040 E0
G1 F2400 X105.874 Y68.558 E0.02428
G1 X106.409 Y68.113 E0.04858
G1 X106.99 Y67.732 E0.07285
G1 X107.612 Y67.421 E0.09713
G1 X108.265 Y67.182 E0.12142
G1 X108.942 Y67.021 E0.14572
G1 X109.838 Y66.928 E0.17718
G1 X110.329 Y66.917 E0.19433
G1 X159.294 Y66.917 E1.90434
G1 X160.079 Y66.928 E1.93176
G1 X160.772 Y66.978 E1.95603
G1 X161.456 Y67.107 E1.98033
G1 X162.12 Y67.313 E2.00461
G1 X162.755 Y67.595 E2.02888
G1 X163.355 Y67.948 E2.05319
G1 X163.91 Y68.367 E2.07748
G1 X164.413 Y68.847 E2.10176
G1 X164.858 Y69.381 E2.12603
G1 X165.238 Y69.964 E2.15034
G1 X165.549 Y70.585 E2.17459
G1 X165.787 Y71.239 E2.1989
G1 X165.948 Y71.915 E2.22316
G1 X166.04 Y72.807 E2.25448
G1 X166.051 Y73.297 E2.2716
G1 X166.05 Y100.326 E3.21553
G1 X166.04 Y101.048 E3.24075
G1 X165.991 Y101.741 E3.26501
G1 X165.862 Y102.425 E3.28932
G1 X165.656 Y103.089 E3.3136
G1 X165.374 Y103.725 E3.3379
G1 X165.146 Y104.13 E3.35413
G1 X164.599 Y105.02 E3.39061
G1 X163.197 Y107.372 E3.48624
G1 X161.898 Y109.698 E3.57928
G1 X160.677 Y112.04 E3.67152
G1 X159.507 Y114.447 E3.76498
G1 X158.415 Y116.865 E3.85764
G1 X157.374 Y119.349 E3.9517
G1 X156.432 Y121.8 E4.0434
G1 X155.558 Y124.277 E4.13513
G1 X154.731 Y126.851 E4.22955
G1 X153.994 Y129.383 E4.32164
G1 X153.32 Y131.976 E4.41521
G1 X153.199 Y132.467 E4.43287
G1 X152.995 Y133.131 E4.45712
G1 X152.715 Y133.768 E4.48143
G1 X152.365 Y134.369 E4.50571
G1 X151.947 Y134.925 E4.53001
G1 X151.469 Y135.43 E4.55429
G1 X150.936 Y135.876 E4.57856
G1 X150.355 Y136.259 E4.60286
G1 X149.734 Y136.572 E4.62715
G1 X149.082 Y136.812 E4.65141
G1 X148.406 Y136.976 E4.67571
G1 X147.512 Y137.07 E4.7071
G1 X147.002 Y137.083 E4.72492
G1 X117.961 Y137.082 E5.73912
G1 X117.263 Y137.073 E5.7635
G1 X116.569 Y137.025 E5.78779
G1 X115.886 Y136.896 E5.81207
G1 X115.222 Y136.691 E5.83634
G1 X114.585 Y136.41 E5.86065
G1 X113.985 Y136.058 E5.88494
G1 X113.43 Y135.64 E5.90921
G1 X112.926 Y135.161 E5.93349
G1 X112.481 Y134.627 E5.95777
G1 X112.099 Y134.045 E5.98208
G1 X111.787 Y133.424 E6.00635
G1 X111.549 Y132.77 E6.03065
G1 X111.386 Y132.094 E6.05494
G1 X111.313 Y131.538 E6.07452
G1 X111.302 Y131.406 E6.07915
G1 X111.026 Y128.666 E6.17532
G1 X110.689 Y126.057 E6.26719
G1 X110.271 Y123.419 E6.36047
G1 X109.781 Y120.803 E6.45342
G1 X109.218 Y118.207 E6.54619
G1 X108.589 Y115.649 E6.63818
G1 X107.868 Y113.043 E6.73261
G1 X107.097 Y110.54 E6.82407
G1 X106.242 Y108.014 E6.91721
G1 X105.318 Y105.52 E7.01009
G1 X104.439 Y103.334 E7.09237
G1 X104.35 Y103.099 E7.10115
G1 X104.142 Y102.435 E7.12545
G1 X104.011 Y101.752 E7.14974
G1 X103.96 Y101.127 E7.17164
G1 X103.949 Y100.638 E7.18872
G1 X103.95 Y73.559 E8.1344
G1 X103.959 Y72.894 E8.15763
G1 X104.008 Y72.2 E8.18192
G1 X104.137 Y71.517 E8.2062
G1 X104.343 Y70.853 E8.23048
G1 X104.624 Y70.217 E8.25476
G1 X104.976 Y69.617 E8.27905
G1 X105.395 Y69.062 E8.30334
M204 S1800
G0 F3600 X105.808 Y69.226
M204 S500
G1 F2400 X106.284 Y68.753 E8.32677
G1 X106.813 Y68.34 E8.35021
G1 X107.387 Y67.993 E8.37364
G1 X107.998 Y67.717 E8.39705
G1 X108.638 Y67.515 E8.42049
G1 X109.297 Y67.391 E8.44391
G1 X109.85 Y67.348 E8.46328
G1 X110.329 Y67.337 E8.48001
G1 X159.294 Y67.337 E10.19002
G1 X160.073 Y67.348 E10.21723
G1 X160.742 Y67.397 E10.24066
G1 X161.4 Y67.526 E10.26407
G1 X162.038 Y67.732 E10.28749
G1 X162.648 Y68.013 E10.31094
G1 X163.219 Y68.364 E10.33435
G1 X163.745 Y68.78 E10.35777
G1 X164.218 Y69.257 E10.38123
G1 X164.63 Y69.786 E10.40464
G1 X164.977 Y70.36 E10.42807
G1 X165.253 Y70.971 E10.45148
G1 X165.454 Y71.611 E10.47491
G1 X165.578 Y72.271 E10.49836
G1 X165.62 Y72.819 E10.51756
G1 X165.631 Y73.297 E10.53425
G1 X165.63 Y100.32 E11.47798
G1 X165.62 Y101.042 E11.5032
G1 X165.571 Y101.711 E11.52663
G1 X165.443 Y102.369 E11.55004
G1 X165.237 Y103.008 E11.57348
G1 X164.957 Y103.617 E11.59689
G1 X164.788 Y103.91 E11.6087
G1 X164.238 Y104.805 E11.64539
G1 X162.83 Y107.169 E11.74148
G1 X161.534 Y109.487 E11.83423
G1 X160.295 Y111.864 E11.92784
G1 X159.135 Y114.25 E12.02049
G1 X158.02 Y116.717 E12.11504
G1 X156.989 Y119.18 E12.20829
G1 X156.039 Y121.652 E12.30077
G1 X155.161 Y124.141 E12.39295
G1 X154.33 Y126.726 E12.48777
G1 X153.592 Y129.261 E12.57998
G1 X152.903 Y131.911 E12.6756
G1 X152.791 Y132.367 E12.692
G1 X152.593 Y133.007 E12.71539
G1 X152.319 Y133.62 E12.73884
G1 X151.975 Y134.196 E12.76227
G1 X151.565 Y134.726 E12.78568
G1 X151.094 Y135.204 E12.80911
G1 X150.57 Y135.623 E12.83254
G1 X150 Y135.976 E12.85596
G1 X149.392 Y136.26 E12.87939
G1 X148.754 Y136.468 E12.90283
G1 X148.096 Y136.6 E12.92626
G1 X147.499 Y136.65 E12.94719
G1 X147.002 Y136.663 E12.96455
G1 X117.966 Y136.663 E13.97858
G1 X117.268 Y136.654 E14.00296
G1 X116.599 Y136.605 E14.02638
G1 X115.941 Y136.477 E14.04979
G1 X115.302 Y136.272 E14.07323
G1 X114.692 Y135.992 E14.09667
G1 X114.12 Y135.642 E14.12009
G1 X113.594 Y135.226 E14.14351
G1 X113.121 Y134.751 E14.16692
G1 X112.708 Y134.222 E14.19036
G1 X112.36 Y133.648 E14.2138
G1 X112.083 Y133.037 E14.23723
G1 X111.881 Y132.398 E14.26063
G1 X111.731 Y131.502 E14.29236
G1 X111.715 Y131.315 E14.29891
G1 X111.442 Y128.604 E14.39407
G1 X111.106 Y126.007 E14.48552
G1 X110.686 Y123.351 E14.57943
G1 X110.191 Y120.706 E14.6734
G1 X109.632 Y118.128 E14.76553
G1 X108.994 Y115.539 E14.85865
G1 X108.278 Y112.951 E14.95242
G1 X107.488 Y110.382 E15.04629
G1 X106.639 Y107.877 E15.13866
G1 X105.719 Y105.392 E15.2312
G1 X104.874 Y103.294 E15.31019
G1 X104.743 Y102.95 E15.32304
G1 X104.543 Y102.31 E15.34646
G1 X104.421 Y101.65 E15.3699
G1 X104.38 Y101.115 E15.38864
G1 X104.369 Y100.638 E15.4053
G1 X104.37 Y73.565 E16.35077
G1 X104.379 Y72.9 E16.374
G1 X104.428 Y72.231 E16.39743
G1 X104.556 Y71.572 E16.42087
G1 X104.761 Y70.934 E16.44427
G1 X105.042 Y70.324 E16.46773
G1 X105.392 Y69.752 E16.49115
G1 X105.808 Y69.226 E16.51457
M204 S1800
G0 F3600 X106.221 Y69.398
M204 S500
G1 F2400 X106.693 Y68.957 E16.53713
G1 X107.215 Y68.578 E16.55965
G1 X107.78 Y68.266 E16.58219
G1 X108.379 Y68.027 E16.60472
G1 X109.004 Y67.864 E16.62727
G1 X109.862 Y67.768 E16.65743
G1 X110.329 Y67.757 E16.67374
G1 X159.294 Y67.757 E18.38375
G1 X160.067 Y67.768 E18.41075
G1 X160.71 Y67.817 E18.43327
G1 X161.342 Y67.945 E18.45579
G1 X161.954 Y68.151 E18.47834
G1 X162.536 Y68.43 E18.50088
G1 X163.078 Y68.779 E18.52339
G1 X163.573 Y69.193 E18.54593
G1 X164.014 Y69.665 E18.56849
G1 X164.392 Y70.188 E18.59102
G1 X164.703 Y70.753 E18.61355
G1 X164.942 Y71.352 E18.63607
G1 X165.105 Y71.977 E18.65863
G1 X165.2 Y72.831 E18.68864
G1 X165.211 Y73.297 E18.70491
G1 X165.211 Y100.314 E19.64843
G1 X165.201 Y101.036 E19.67365
G1 X165.152 Y101.68 E19.69621
G1 X165.024 Y102.312 E19.71872
G1 X164.818 Y102.924 E19.74128
G1 X164.431 Y103.691 E19.77128
G1 X163.842 Y104.65 E19.81058
G1 X162.472 Y106.95 E19.90408
G1 X161.157 Y109.305 E19.99827
G1 X159.906 Y111.702 E20.0927
G1 X158.756 Y114.067 E20.18454
G1 X157.646 Y116.526 E20.27876
G1 X156.593 Y119.041 E20.37398
G1 X155.65 Y121.494 E20.46576
G1 X154.756 Y124.027 E20.55956
G1 X153.935 Y126.581 E20.65325
G1 X153.181 Y129.172 E20.74749
G1 X152.496 Y131.806 E20.84254
G1 X152.383 Y132.266 E20.85908
G1 X152.191 Y132.882 E20.88162
G1 X151.924 Y133.47 E20.90417
G1 X151.586 Y134.019 E20.92668
G1 X151.183 Y134.523 E20.94922
G1 X150.721 Y134.974 E20.97177
G1 X150.206 Y135.363 E20.99431
G1 X149.648 Y135.686 E21.01682
G1 X149.053 Y135.938 E21.03939
G1 X148.433 Y136.114 E21.0619
G1 X147.486 Y136.23 E21.09522
G1 X147.002 Y136.243 E21.11213
G1 X117.972 Y136.243 E22.12594
G1 X117.274 Y136.234 E22.15032
G1 X116.63 Y136.185 E22.17288
G1 X115.998 Y136.058 E22.19539
G1 X115.386 Y135.853 E22.21793
G1 X114.804 Y135.574 E22.24047
G1 X114.261 Y135.226 E22.26299
G1 X113.765 Y134.813 E22.28553
G1 X113.324 Y134.342 E22.30807
G1 X112.945 Y133.82 E22.3306
G1 X112.633 Y133.255 E22.35314
G1 X112.393 Y132.656 E22.37567
G1 X112.229 Y132.032 E22.3982
G1 X112.15 Y131.466 E22.41816
G1 X112.138 Y131.322 E22.42321
G1 X111.862 Y128.578 E22.51952
G1 X111.518 Y125.922 E22.61305
G1 X111.1 Y123.276 E22.7066
G1 X110.607 Y120.649 E22.79995
G1 X110.035 Y118.006 E22.89439
G1 X109.402 Y115.436 E22.98682
G1 X108.686 Y112.849 E23.08057
G1 X107.892 Y110.267 E23.1749
G1 X107.025 Y107.708 E23.26926
G1 X106.108 Y105.233 E23.36144
G1 X105.264 Y103.137 E23.44035
G1 X105.136 Y102.801 E23.45291
G1 X104.945 Y102.185 E23.47543
G1 X104.832 Y101.549 E23.49799
G1 X104.791 Y100.785 E23.52471
G1 X104.789 Y100.638 E23.52984
G1 X104.789 Y73.57 E24.47514
G1 X104.798 Y72.905 E24.49837
G1 X104.847 Y72.262 E24.52089
G1 X104.975 Y71.63 E24.54341
G1 X105.18 Y71.018 E24.56595
G1 X105.459 Y70.436 E24.58849
G1 X105.808 Y69.893 E24.61103
G1 X106.221 Y69.398 E24.63354
M204 S1800
G1 F5100 E20.63354
;MESH:holder_design.stl
G0 F3600 X115.907 Y79.273
G0 X114.555 Y77.921
G0 X114.69 Y78.056
M204 S500
;TYPE:WALL-INNER
G1 F2040 E24.63354
G1 F1200 X113.437 Y79.578 E24.70239
G1 X112.508 Y81.319 E24.77131
G1 X111.936 Y83.206 E24.84017
G1 X111.743 Y85.167 E24.90898
G1 X111.936 Y87.128 E24.9778
G1 X112.508 Y89.015 E25.04666
G1 X113.437 Y90.756 E25.11558
G1 X114.69 Y92.278 E25.18442
G1 X116.212 Y93.53 E25.25325
G1 X117.95 Y94.46 E25.32209
G1 X119.84 Y95.032 E25.39105
G1 X121.801 Y95.225 E25.45987
G1 X123.762 Y95.032 E25.52868
G1 X125.65 Y94.46 E25.59758
G1 X127.39 Y93.53 E25.66648
G1 X128.912 Y92.278 E25.7353
G1 X130.164 Y90.755 E25.80416
G1 X131.07 Y89.061 E25.87125
G1 X131.216 Y88.727 E25.88398
G1 X131.227 Y88.704 E25.88487
G1 X131.772 Y86.912 E25.95028
G1 X131.958 Y85.019 E26.01671
G1 X131.772 Y83.126 E26.08313
G1 X131.219 Y81.303 E26.14966
G1 X130.322 Y79.627 E26.21605
G1 X129.115 Y78.155 E26.28253
G1 X127.65 Y76.952 E26.34873
G1 X127.325 Y76.77 E26.36174
G1 X125.649 Y75.874 E26.42811
G1 X123.762 Y75.302 E26.49697
G1 X121.801 Y75.109 E26.56579
G1 X119.84 Y75.302 E26.6346
G1 X117.95 Y75.874 E26.70356
G1 X116.212 Y76.804 E26.7724
G1 X114.69 Y78.056 E26.84123
M204 S1800
G0 F3600 X114.988 Y78.354
M204 S500
G1 F1200 X113.788 Y79.813 E26.9072
G1 X112.898 Y81.48 E26.9732
G1 X112.35 Y83.288 E27.03917
G1 X112.165 Y85.167 E27.10511
G1 X112.35 Y87.046 E27.17105
G1 X112.898 Y88.854 E27.23703
G1 X113.788 Y90.521 E27.30302
G1 X114.988 Y91.98 E27.369
G1 X116.447 Y93.179 E27.43495
G1 X118.112 Y94.07 E27.5009
G1 X119.922 Y94.618 E27.56694
G1 X121.801 Y94.803 E27.63288
G1 X123.68 Y94.618 E27.69882
G1 X125.489 Y94.07 E27.76483
G1 X127.155 Y93.179 E27.83081
G1 X128.614 Y91.98 E27.89676
G1 X129.813 Y90.52 E27.96274
G1 X130.692 Y88.877 E28.02781
G1 X130.833 Y88.558 E28.03999
G1 X131.358 Y86.83 E28.10306
G1 X131.536 Y85.019 E28.16661
G1 X131.358 Y83.208 E28.23016
G1 X130.829 Y81.465 E28.29378
G1 X129.971 Y79.861 E28.3573
G1 X128.816 Y78.453 E28.4209
G1 X127.412 Y77.3 E28.48435
G1 X127.123 Y77.138 E28.49592
G1 X125.488 Y76.264 E28.56067
G1 X123.68 Y75.716 E28.62664
G1 X121.801 Y75.531 E28.69258
G1 X119.922 Y75.716 E28.75852
G1 X118.112 Y76.264 E28.82456
G1 X116.447 Y77.155 E28.89051
G1 X114.988 Y78.354 E28.95646
M204 S1800
G0 F3600 X115.286 Y78.652
M204 S500
;TYPE:WALL-OUTER
G1 F1200 X114.139 Y80.048 E29.01956
G1 X113.288 Y81.641 E29.08263
G1 X112.764 Y83.37 E29.14573
G1 X112.587 Y85.167 E29.20879
G1 X112.764 Y86.964 E29.27185
G1 X113.288 Y88.693 E29.33494
G1 X114.139 Y90.286 E29.39802
G1 X115.286 Y91.682 E29.46112
G1 X116.682 Y92.828 E29.52419
G1 X118.274 Y93.68 E29.58725
G1 X120.004 Y94.204 E29.65038
G1 X121.801 Y94.381 E29.71344
G1 X123.598 Y94.204 E29.7765
G1 X125.327 Y93.68 E29.83959
G1 X126.92 Y92.828 E29.90268
G1 X128.316 Y91.682 E29.96576
G1 X129.462 Y90.286 E30.02884
G1 X130.314 Y88.692 E30.09196
G1 X130.439 Y88.411 E30.1027
G1 X130.944 Y86.748 E30.16339
G1 X131.114 Y85.019 E30.22407
G1 X130.944 Y83.29 E30.28474
G1 X130.439 Y81.627 E30.34543
G1 X129.62 Y80.095 E30.4061
G1 X128.518 Y78.751 E30.4668
G1 X127.174 Y77.648 E30.52752
G1 X126.921 Y77.506 E30.53765
G1 X125.327 Y76.654 E30.60077
G1 X123.598 Y76.13 E30.66387
G1 X121.801 Y75.953 E30.72693
G1 X120.004 Y76.13 E30.78999
G1 X118.274 Y76.654 E30.85311
G1 X116.682 Y77.506 E30.91617
G1 X115.286 Y78.652 E30.97925
M204 S1800
G0 F3600 X115.159 Y78.806
G0 X114.803 Y78.513
G1 F5100 E26.97925
G0 F3600 X116.548 Y77.306
G0 X118.182 Y76.432
G0 X119.958 Y75.894
G0 X121.801 Y75.712
G0 X123.644 Y75.894
G0 X125.419 Y76.432
G0 X127.309 Y77.449
G0 X128.425 Y78.365
G0 X131.396 Y81.229
G0 X129.628 Y81.962
G0 X139.618 Y83.461
G0 X137.74 Y83.088
G0 X138.481 Y81.303
M204 S500
;TYPE:WALL-INNER
G1 F2040 E30.97925
G1 F1200 X137.928 Y83.126 E31.04578
G1 X137.742 Y85.019 E31.11221
G1 X137.928 Y86.912 E31.17864
G1 X138.473 Y88.707 E31.24415
G1 X138.634 Y89.064 E31.25782
G1 X139.538 Y90.756 E31.32482
G1 X140.79 Y92.278 E31.39365
G1 X142.312 Y93.53 E31.46247
G1 X144.052 Y94.46 E31.53137
G1 X145.94 Y95.032 E31.60027
G1 X147.901 Y95.225 E31.66908
G1 X149.862 Y95.032 E31.7379
G1 X151.75 Y94.46 E31.80679
G1 X153.49 Y93.53 E31.87569
G1 X155.012 Y92.278 E31.94452
G1 X156.264 Y90.756 E32.01335
G1 X157.194 Y89.015 E32.08228
G1 X157.765 Y87.128 E32.15113
G1 X157.958 Y85.167 E32.21994
G1 X157.765 Y83.206 E32.28876
G1 X157.194 Y81.319 E32.35761
G1 X156.264 Y79.578 E32.42654
G1 X155.012 Y78.056 E32.49537
G1 X153.49 Y76.804 E32.56419
G1 X151.75 Y75.874 E32.6331
G1 X149.862 Y75.302 E32.70199
G1 X147.901 Y75.109 E32.7708
G1 X145.94 Y75.302 E32.83962
G1 X144.053 Y75.874 E32.90848
G1 X142.378 Y76.769 E32.9748
G1 X142.05 Y76.953 E32.98794
G1 X140.586 Y78.155 E33.05409
G1 X139.378 Y79.627 E33.12059
G1 X138.481 Y81.303 E33.18698
M204 S1800
G0 F3600 X138.871 Y81.465
M204 S500
G1 F1200 X138.342 Y83.208 E33.25059
G1 X138.164 Y85.019 E33.31414
G1 X138.342 Y86.83 E33.37769
G1 X138.867 Y88.559 E33.4408
G1 X139.011 Y88.878 E33.45302
G1 X139.889 Y90.521 E33.51808
G1 X141.088 Y91.98 E33.58403
G1 X142.547 Y93.179 E33.64998
G1 X144.213 Y94.07 E33.71596
G1 X146.022 Y94.618 E33.78197
G1 X147.901 Y94.803 E33.84791
G1 X149.78 Y94.618 E33.91385
G1 X151.589 Y94.07 E33.97986
G1 X153.255 Y93.179 E34.04584
G1 X154.714 Y91.98 E34.11179
G1 X155.913 Y90.521 E34.17774
G1 X156.804 Y88.854 E34.24375
G1 X157.351 Y87.046 E34.30972
G1 X157.536 Y85.167 E34.37566
G1 X157.351 Y83.288 E34.44159
G1 X156.804 Y81.48 E34.50756
G1 X155.913 Y79.813 E34.57357
G1 X154.714 Y78.354 E34.63952
G1 X153.255 Y77.155 E34.70547
G1 X151.589 Y76.264 E34.77145
G1 X149.78 Y75.716 E34.83747
G1 X147.901 Y75.531 E34.9034
G1 X146.022 Y75.716 E34.96934
G1 X144.214 Y76.264 E35.03532
G1 X142.58 Y77.137 E35.10002
G1 X142.288 Y77.301 E35.11171
G1 X140.884 Y78.453 E35.17514
G1 X139.729 Y79.861 E35.23874
G1 X138.871 Y81.465 E35.30226
M204 S1800
G0 F3600 X139.261 Y81.627
M204 S500
;TYPE:WALL-OUTER
G1 F1200 X138.756 Y83.29 E35.36296
G1 X138.586 Y85.019 E35.42363
G1 X138.756 Y86.748 E35.48431
G1 X139.261 Y88.411 E35.545
G1 X139.388 Y88.693 E35.5558
G1 X140.24 Y90.286 E35.61889
G1 X141.386 Y91.682 E35.68197
G1 X142.782 Y92.828 E35.74505
G1 X144.375 Y93.68 E35.80814
G1 X146.104 Y94.204 E35.87123
G1 X147.901 Y94.381 E35.93429
G1 X149.698 Y94.204 E35.99735
G1 X151.427 Y93.68 E36.06045
G1 X153.02 Y92.828 E36.12353
G1 X154.416 Y91.682 E36.18661
G1 X155.562 Y90.286 E36.24969
G1 X156.414 Y88.693 E36.31278
G1 X156.937 Y86.964 E36.37586
G1 X157.114 Y85.167 E36.43892
G1 X156.937 Y83.37 E36.50198
G1 X156.414 Y81.641 E36.56507
G1 X155.562 Y80.048 E36.62816
G1 X154.416 Y78.652 E36.69123
G1 X153.02 Y77.506 E36.75431
G1 X151.427 Y76.654 E36.8174
