;FLAVOR:Marlin
;TIME:1347
;Filament used: 1.77075m
;Layer height: 0.2
;MINX:98.961
;MINY:78.45
;MINZ:0.2
;MAXX:171.03
;MAXY:125.55
;MAXZ:9.91
;Generated with Cura_SteamEngine 4.9.0
M140 S65
M105
M190 S65
M104 S215
M105
M109 S215
M82 ;absolute extrusion mode
G90 ; use absolute coordinates
M140 S[first_layer_bed_temperature] ; set bed temp
M190 S[first_layer_bed_temperature] ; wait for bed temp
G28 ; home all without mesh bed level
G29 ; mesh bed leveling/ABL
M104 S[first_layer_temperature] ; set extruder temp
G92 E0.0
G1 Y-2.0 X150 F2400G1 Z3 F720
M109 S[first_layer_temperature] ; wait for extruder temp
G1 X150 F1000
G1 Z0.2 F720
G1 X80.0 E8.0 F900
G1 X20.0 E10.0 F700
G92 E0.0
M221 S95 ; set flow

G92 E0
G92 E0
G1 F5100 E-4
;LAYER_COUNT:36
;LAYER:0
M106 S255
M204 S1800
G0 F3600 X100.757 Y80.207 Z0.2
M204 S500
;TYPE:SKIRT
G1 F2040 E0
G1 F2400 X101.279 Y79.748 E0.02428
G1 X101.85 Y79.351 E0.04856
G1 X102.463 Y79.022 E0.07286
G1 X103.109 Y78.766 E0.09713
G1 X103.781 Y78.586 E0.12142
G1 X104.812 Y78.463 E0.15768
G1 X105.315 Y78.45 E0.17525
G1 X164.293 Y78.45 E2.23495
G1 X165.076 Y78.461 E2.2623
G1 X165.77 Y78.511 E2.2866
G1 X166.453 Y78.64 E2.31087
G1 X167.117 Y78.847 E2.33516
G1 X167.753 Y79.128 E2.35945
G1 X168.352 Y79.481 E2.38373
G1 X168.907 Y79.9 E2.40801
G1 X169.41 Y80.38 E2.43229
G1 X169.855 Y80.915 E2.4566
G1 X170.235 Y81.497 E2.48087
G1 X170.546 Y82.119 E2.50516
G1 X170.784 Y82.772 E2.52943
G1 X170.945 Y83.449 E2.55373
G1 X171.028 Y84.139 E2.578
G1 X171.03 Y84.835 E2.60231
G1 X170.965 Y85.509 E2.62596
G1 X170.942 Y85.684 E2.63212
G1 X166.083 Y119.694 E3.83192
G1 X165.97 Y120.42 E3.85758
G1 X165.824 Y121.1 E3.88186
G1 X165.6 Y121.759 E3.90617
G1 X165.303 Y122.388 E3.93046
G1 X164.935 Y122.978 E3.95475
G1 X164.503 Y123.522 E3.97901
G1 X164.01 Y124.013 E4.00331
G1 X163.464 Y124.444 E4.0276
G1 X162.873 Y124.81 E4.05188
G1 X162.243 Y125.105 E4.07617
G1 X161.584 Y125.327 E4.10046
G1 X160.904 Y125.471 E4.12473
G1 X160.17 Y125.537 E4.15047
G1 X159.652 Y125.55 E4.16856
G1 X110.612 Y125.549 E5.8812
G1 X109.913 Y125.538 E5.90561
G1 X109.219 Y125.487 E5.92991
G1 X108.536 Y125.357 E5.95419
G1 X107.872 Y125.15 E5.97848
G1 X107.237 Y124.867 E6.00276
G1 X106.638 Y124.514 E6.02704
G1 X106.084 Y124.094 E6.05132
G1 X105.581 Y123.613 E6.07563
G1 X105.137 Y123.078 E6.09991
G1 X104.758 Y122.495 E6.12419
G1 X104.447 Y121.873 E6.14848
G1 X104.211 Y121.219 E6.17276
G1 X104.045 Y120.508 E6.19826
G1 X103.959 Y119.994 E6.21646
G1 X99.095 Y85.943 E7.41769
G1 X99.01 Y85.287 E7.4408
G1 X98.961 Y84.594 E7.46506
G1 X98.991 Y83.899 E7.48935
G1 X99.101 Y83.212 E7.51365
G1 X99.289 Y82.543 E7.53792
G1 X99.552 Y81.899 E7.56221
G1 X99.888 Y81.29 E7.5865
G1 X100.291 Y80.724 E7.61077
G1 X100.757 Y80.207 E7.63508
M204 S1800
G0 F3600 X101.189 Y80.375
M204 S500
G1 F2400 X101.708 Y79.95 E7.6585
G1 X102.274 Y79.589 E7.68195
G1 X102.879 Y79.299 E7.70538
G1 X103.514 Y79.082 E7.72881
G1 X104.17 Y78.943 E7.75223
G1 X104.826 Y78.883 E7.77524
G1 X105.315 Y78.87 E7.79232
G1 X164.293 Y78.87 E9.85202
G1 X165.07 Y78.881 E9.87915
G1 X165.739 Y78.93 E9.90258
G1 X166.397 Y79.059 E9.926
G1 X167.036 Y79.265 E9.94944
G1 X167.645 Y79.546 E9.97287
G1 X168.216 Y79.897 E9.99627
G1 X168.742 Y80.314 E10.01972
G1 X169.215 Y80.79 E10.04315
G1 X169.627 Y81.319 E10.06657
G1 X169.974 Y81.893 E10.08999
G1 X170.25 Y82.505 E10.11344
G1 X170.451 Y83.144 E10.13683
G1 X170.575 Y83.804 E10.16028
G1 X170.619 Y84.473 E10.1837
G1 X170.583 Y85.143 E10.20713
G1 X170.526 Y85.624 E10.22405
G1 X165.668 Y119.63 E11.4237
G1 X165.555 Y120.356 E11.44936
G1 X165.413 Y121.011 E11.47277
G1 X165.193 Y121.645 E11.4962
G1 X164.9 Y122.249 E11.51965
G1 X164.537 Y122.813 E11.54307
G1 X164.109 Y123.33 E11.56651
G1 X163.623 Y123.792 E11.58993
G1 X163.086 Y124.194 E11.61335
G1 X162.505 Y124.528 E11.63676
G1 X161.888 Y124.791 E11.66018
G1 X161.244 Y124.979 E11.68361
G1 X160.582 Y125.089 E11.70705
G1 X159.818 Y125.128 E11.73376
G1 X159.652 Y125.13 E11.73956
G1 X110.618 Y125.129 E13.45198
G1 X109.919 Y125.118 E13.4764
G1 X109.25 Y125.068 E13.49982
G1 X108.592 Y124.938 E13.52325
G1 X107.954 Y124.731 E13.54667
G1 X107.345 Y124.45 E13.5701
G1 X106.774 Y124.098 E13.59352
G1 X106.249 Y123.68 E13.61696
G1 X105.777 Y123.203 E13.64039
G1 X105.365 Y122.674 E13.66381
G1 X105.02 Y122.099 E13.68723
G1 X104.745 Y121.487 E13.71066
G1 X104.544 Y120.847 E13.73409
G1 X104.398 Y120.087 E13.76111
G1 X99.522 Y85.962 E14.96497
G1 X99.427 Y85.233 E14.99064
G1 X99.38 Y84.564 E15.01406
G1 X99.414 Y83.894 E15.03749
G1 X99.527 Y83.233 E15.06091
G1 X99.718 Y82.59 E15.08434
G1 X99.983 Y81.974 E15.10776
G1 X100.321 Y81.394 E15.1312
G1 X100.725 Y80.859 E15.15461
G1 X101.189 Y80.375 E15.17803
M204 S1800
G0 F3600 X101.158 Y81.002
M204 S500
G1 F2400 X101.621 Y80.553 E15.20055
G1 X102.136 Y80.164 E15.22309
G1 X102.696 Y79.842 E15.24565
G1 X103.29 Y79.592 E15.26816
G1 X103.912 Y79.417 E15.29072
G1 X104.839 Y79.303 E15.32334
G1 X105.315 Y79.29 E15.33997
G1 X164.293 Y79.29 E17.39967
G1 X165.064 Y79.301 E17.4266
G1 X165.707 Y79.35 E17.44912
G1 X166.34 Y79.478 E17.47167
G1 X166.951 Y79.684 E17.49419
G1 X167.533 Y79.963 E17.51673
G1 X168.075 Y80.313 E17.53926
G1 X168.571 Y80.726 E17.5618
G1 X169.011 Y81.198 E17.58434
G1 X169.389 Y81.721 E17.60687
G1 X169.701 Y82.286 E17.62941
G1 X169.939 Y82.886 E17.65196
G1 X170.102 Y83.51 E17.67448
G1 X170.187 Y84.15 E17.69703
G1 X170.166 Y85.096 E17.73007
G1 X170.111 Y85.565 E17.74656
G1 X165.253 Y119.565 E18.94601
G1 X165.14 Y120.291 E18.97167
G1 X165.001 Y120.922 E18.99423
G1 X164.786 Y121.53 E19.01675
G1 X164.497 Y122.107 E19.03929
G1 X164.139 Y122.644 E19.06183
G1 X163.717 Y123.132 E19.08436
G1 X163.239 Y123.565 E19.10689
G1 X162.71 Y123.935 E19.12943
G1 X162.14 Y124.237 E19.15196
G1 X161.536 Y124.466 E19.17452
G1 X160.91 Y124.619 E19.19702
G1 X160.145 Y124.698 E19.22388
G1 X159.652 Y124.71 E19.2411
G1 X110.625 Y124.709 E20.95328
G1 X109.926 Y124.698 E20.97769
G1 X109.283 Y124.648 E21.00022
G1 X108.65 Y124.519 E21.02278
G1 X108.039 Y124.313 E21.0453
G1 X107.458 Y124.032 E21.06783
G1 X106.916 Y123.682 E21.09037
G1 X106.421 Y123.268 E21.1129
G1 X105.982 Y122.795 E21.13544
G1 X105.604 Y122.272 E21.15798
G1 X105.293 Y121.706 E21.18053
G1 X105.055 Y121.107 E21.20304
G1 X104.872 Y120.367 E21.22966
G1 X104.79 Y119.875 E21.24708
G1 X99.928 Y85.835 E22.44793
G1 X99.843 Y85.179 E22.47103
G1 X99.8 Y84.536 E22.49354
G1 X99.837 Y83.891 E22.5161
G1 X99.953 Y83.257 E22.53861
G1 X100.147 Y82.641 E22.56116
G1 X100.415 Y82.054 E22.5837
G1 X100.754 Y81.505 E22.60623
G1 X101.158 Y81.002 E22.62876
M204 S1800
G1 F5100 E18.62876
;MESH:staticSupportSTL.stl
G0 F3600 X104.579 Y84.139
G0 X105.488 Y84.923
G0 X106.821 Y85.87
G0 X106.82 Y85.87
M204 S500
;TYPE:WALL-INNER
G1 F2040 E22.62876
G1 F1200 X106.58 Y85.87 E22.63714
G1 X106.614 Y86.108 E22.64237
G1 X111.189 Y118.13 E23.77204
G1 X129.035 Y118.129 E24.39528
G1 X129.735 Y118.083 E24.41977
G1 X130.459 Y117.939 E24.44555
G1 X131.169 Y117.696 E24.47176
G1 X131.815 Y117.377 E24.49692
G1 X132.428 Y116.968 E24.52266
G1 X132.983 Y116.482 E24.54842
G1 X133.477 Y115.915 E24.57468
G1 X133.877 Y115.315 E24.59987
G1 X134.203 Y114.654 E24.62561
G1 X134.443 Y113.942 E24.65185
G1 X134.583 Y113.235 E24.67702
G1 X134.63 Y112.521 E24.70201
G1 X134.629 Y91.465 E25.43735
G1 X134.583 Y90.764 E25.46188
G1 X134.435 Y90.027 E25.48813
G1 X134.202 Y89.345 E25.5133
G1 X133.876 Y88.684 E25.53904
G1 X133.459 Y88.061 E25.56522
G1 X132.983 Y87.517 E25.59047
G1 X132.428 Y87.032 E25.61621
G1 X131.815 Y86.623 E25.64194
G1 X131.155 Y86.298 E25.66763
G1 X130.458 Y86.06 E25.69336
G1 X129.735 Y85.917 E25.71909
G1 X129.021 Y85.87 E25.74408
G1 X106.821 Y85.87 E26.51938
G1 X106.82 Y85.87 E26.51941
M204 S1800
G0 F3600 X107.064 Y86.29
M204 S500
;TYPE:WALL-OUTER
G1 F1200 X107.098 Y86.529 E26.52784
G1 X111.553 Y117.71 E27.62784
G1 X129.021 Y117.709 E28.23788
G1 X129.68 Y117.666 E28.26094
G1 X130.349 Y117.533 E28.28476
G1 X131.007 Y117.307 E28.30906
G1 X131.605 Y117.012 E28.33235
G1 X132.172 Y116.634 E28.35614
G1 X132.685 Y116.185 E28.37995
G1 X133.142 Y115.66 E28.40426
G1 X133.512 Y115.105 E28.42756
G1 X133.814 Y114.493 E28.45139
G1 X134.036 Y113.834 E28.47567
G1 X134.166 Y113.18 E28.49896
G1 X134.21 Y112.507 E28.52251
G1 X134.209 Y91.479 E29.25688
G1 X134.166 Y90.819 E29.27998
G1 X134.029 Y90.137 E29.30427
G1 X133.813 Y89.506 E29.32756
G1 X133.512 Y88.895 E29.35135
G1 X133.125 Y88.317 E29.37564
G1 X132.685 Y87.815 E29.39895
G1 X132.172 Y87.366 E29.42276
G1 X131.605 Y86.988 E29.44656
G1 X130.994 Y86.687 E29.47035
G1 X130.349 Y86.467 E29.49415
G1 X129.68 Y86.334 E29.51797
G1 X129.007 Y86.29 E29.54152
G1 X107.306 Y86.29 E30.29939
G1 X107.305 Y86.29 E30.29942
G1 X107.064 Y86.29 E30.30466
M204 S1800
G0 F3600 X107.092 Y86.488
G0 X106.635 Y86.552
G0 X129.015 Y86.051
G0 X130.411 Y86.235
G0 X131.724 Y86.78
G0 X132.855 Y87.645
G0 X133.72 Y88.775
G0 X135.557 Y90.058
M204 S500
;TYPE:WALL-INNER
G1 F1200 X135.417 Y90.765 E30.32983
G1 X135.37 Y91.479 E30.35482
G1 X135.371 Y112.535 E31.09016
G1 X135.417 Y113.236 E31.1147
G1 X135.565 Y113.973 E31.14095
G1 X135.798 Y114.655 E31.16612
G1 X136.124 Y115.316 E31.19186
G1 X136.541 Y115.939 E31.21804
G1 X137.017 Y116.483 E31.24328
G1 X137.572 Y116.968 E31.26902
G1 X138.185 Y117.377 E31.29476
G1 X138.845 Y117.702 E31.32045
G1 X139.542 Y117.94 E31.34617
G1 X140.265 Y118.083 E31.37191
G1 X140.979 Y118.13 E31.3969
G1 X158.811 Y118.13 E32.01965
G1 X163.386 Y86.108 E33.14931
G1 X163.42 Y85.87 E33.15771
G1 X163.18 Y85.87 E33.16293
G1 X163.179 Y85.87 E33.16296
G1 X140.979 Y85.87 E33.93826
G1 X140.265 Y85.917 E33.96325
G1 X139.541 Y86.061 E33.98903
G1 X138.831 Y86.304 E34.01523
G1 X138.185 Y86.623 E34.0404
G1 X137.572 Y87.032 E34.06613
G1 X137.017 Y87.518 E34.09189
G1 X136.523 Y88.085 E34.11816
G1 X136.123 Y88.685 E34.14334
G1 X135.797 Y89.346 E34.16908
G1 X135.557 Y90.058 E34.19532
M204 S1800
G0 F3600 X135.964 Y90.166
M204 S500
;TYPE:WALL-OUTER
G1 F1200 X135.834 Y90.82 E34.21861
G1 X135.79 Y91.493 E34.24216
G1 X135.791 Y112.521 E34.97652
G1 X135.834 Y113.181 E34.99962
G1 X135.971 Y113.863 E35.02391
G1 X136.187 Y114.494 E35.04721
G1 X136.488 Y115.105 E35.07099
G1 X136.875 Y115.683 E35.09529
G1 X137.315 Y116.185 E35.1186
G1 X137.828 Y116.634 E35.14241
G1 X138.395 Y117.012 E35.16621
G1 X139.006 Y117.313 E35.18999
G1 X139.651 Y117.533 E35.21379
G1 X140.32 Y117.666 E35.23761
G1 X140.993 Y117.71 E35.26117
G1 X158.447 Y117.71 E35.87071
G1 X162.902 Y86.529 E36.97071
G1 X162.936 Y86.29 E36.97914
G1 X162.695 Y86.29 E36.98438
G1 X162.694 Y86.29 E36.98442
G1 X140.993 Y86.29 E37.74228
G1 X140.32 Y86.334 E37.76584
G1 X139.651 Y86.467 E37.78966
G1 X138.993 Y86.693 E37.81395
G1 X138.395 Y86.988 E37.83724
G1 X137.828 Y87.366 E37.86104
G1 X137.315 Y87.815 E37.88485
G1 X136.858 Y88.34 E37.90916
G1 X136.488 Y88.895 E37.93245
G1 X136.186 Y89.507 E37.95628
G1 X135.964 Y90.166 E37.98057
M204 S1800
G0 F3600 X135.925 Y90.362
G0 X135.473 Y90.272
G0 X135 Y113.29
M204 S500
;TYPE:WALL-INNER
G1 F1200 X135.14 Y113.991 E38.00553
G1 X135.159 Y114.083 E38.00881
G1 X135.21 Y114.234 E38.01438
G1 X135.409 Y114.816 E38.03586
G1 X135.76 Y115.527 E38.06355
G1 X136.207 Y116.195 E38.09162
G1 X136.719 Y116.781 E38.1188
G1 X137.316 Y117.302 E38.14647
G1 X137.975 Y117.742 E38.17414
G1 X138.57 Y118.035 E38.1973
G1 X138.684 Y118.091 E38.20174
G1 X139.433 Y118.347 E38.22938
G1 X139.956 Y118.45 E38.248
G1 X139.433 Y118.45 E38.25017
G1 X138.684 Y118.45 E38.26442
G1 X138.556 Y118.45 E38.26858
G1 X131.446 Y118.45 E38.51689
G1 X131.331 Y118.45 E38.5209
G1 X130.568 Y118.45 E38.54755
G1 X130.041 Y118.45 E38.56595
G1 X130.568 Y118.345 E38.56854
G1 X131.331 Y118.085 E38.58482
G1 X131.434 Y118.035 E38.58857
G1 X132.025 Y117.742 E38.61161
G1 X132.684 Y117.302 E38.63928
G1 X133.281 Y116.779 E38.667
G1 X133.811 Y116.17 E38.69519
G1 X134.242 Y115.525 E38.72228
G1 X134.592 Y114.815 E38.74993
G1 X134.799 Y114.201 E38.77256
G1 X134.85 Y114.05 E38.77743
G1 X134.855 Y114.024 E38.77775
G1 X135 Y113.29 E38.78737
M204 S1800
G0 F3600 X135.596 Y90.789
G0 X135.965 Y89.415
G0 X136.668 Y88.194
G0 X137.448 Y87.38
G0 X139.959 Y85.55
M204 S500
G1 F1200 X139.432 Y85.655 E38.80614
G1 X138.669 Y85.915 E38.83429
G1 X138.566 Y85.965 E38.83829
G1 X137.975 Y86.258 E38.86132
G1 X137.316 Y86.698 E38.889
G1 X136.719 Y87.221 E38.91672
G1 X136.189 Y87.83 E38.94491
G1 X135.758 Y88.475 E38.972
G1 X135.408 Y89.185 E38.99965
G1 X135.201 Y89.799 E39.02227
G1 X135.15 Y89.95 E39.02784
G1 X135.145 Y89.977 E39.0288
G1 X135 Y90.709 E39.05486
G1 X134.86 Y90.009 E39.0633
G1 X134.841 Y89.917 E39.06597
G1 X134.79 Y89.766 E39.07085
G1 X134.591 Y89.184 E39.09233
G1 X134.24 Y88.473 E39.12002
G1 X133.793 Y87.805 E39.14809
G1 X133.281 Y87.219 E39.17527
G1 X132.684 Y86.698 E39.20294
G1 X132.025 Y86.258 E39.23062
G1 X131.43 Y85.965 E39.25378
G1 X131.316 Y85.909 E39.25821
G1 X130.567 Y85.653 E39.28586
G1 X130.044 Y85.55 E39.30447
G1 X130.567 Y85.55 E39.30664
G1 X131.316 Y85.55 E39.3209
G1 X131.444 Y85.55 E39.32506
G1 X138.554 Y85.55 E39.57336
G1 X138.669 Y85.55 E39.57713
G1 X139.432 Y85.55 E39.59191
G1 X139.959 Y85.55 E39.59414
M204 S1800
G0 F3600 X164.274 Y85.13
M204 S500
G1 F1200 X164.24 Y85.368 E39.60253
G1 X159.454 Y118.87 E40.78441
G1 X110.546 Y118.87 E42.49243
G1 X105.76 Y85.368 E43.6743
G1 X105.726 Y85.13 E43.6827
G1 X105.966 Y85.13 E43.68792
G1 X105.967 Y85.13 E43.68795
G1 X164.033 Y85.13 E45.7158
G1 X164.034 Y85.13 E45.71584
G1 X164.274 Y85.13 E45.72106
M204 S1800
G0 F3600 X164.516 Y84.71
M204 S500
;TYPE:WALL-OUTER
G1 F1200 X164.517 Y84.71 E45.72109
G1 X164.758 Y84.71 E45.72951
G1 X164.724 Y84.949 E45.73476
G1 X159.818 Y119.29 E46.94623
G1 X110.182 Y119.29 E48.67967
G1 X105.276 Y84.949 E49.89115
G1 X105.242 Y84.71 E49.89958
G1 X105.483 Y84.71 E49.90482
G1 X105.484 Y84.71 E49.90485
G1 X164.516 Y84.71 E51.96643
M204 S1800
G0 F3600 X164.517 Y84.71
G0 X164.716 Y84.71
G0 X164.452 Y84.975
G0 X137.683 Y85.66
G0 X137.683 Y85.96
M204 S500
;TYPE:SKIN
G1 F1200 X137.066 Y86.372 E51.99234
G1 X136.428 Y86.93 E52.02194
G1 X135.863 Y87.58 E52.05202
G1 X135.402 Y88.27 E52.081
G1 X135.028 Y89.029 E52.11055
G1 X135 Y89.113 E52.11364
G1 X134.97 Y89.026 E52.11686
G1 X134.596 Y88.268 E52.14638
G1 X134.119 Y87.555 E52.17633
G1 X133.572 Y86.928 E52.20539
G1 X132.934 Y86.372 E52.23495
G1 X132.317 Y85.96 E52.26086
G1 X137.683 Y85.96 E52.44825
M204 S1800
G0 F3600 X136.93 Y86.262
M204 S500
G1 F1200 X136.798 Y86.13 E52.45477
M204 S1800
G0 F3600 X136.613 Y86.539
M204 S500
G1 F1200 X136.204 Y86.13 E52.47497
M204 S1800
G0 F3600 X135.61 Y86.13
M204 S500
G1 F1200 X136.298 Y86.818 E52.50895
M204 S1800
G0 F3600 X136.022 Y87.136
M204 S500
G1 F1200 X135.016 Y86.13 E52.55864
M204 S1800
G0 F3600 X134.422 Y86.13
M204 S500
G1 F1200 X135.746 Y87.453 E52.624
M204 S1800
G0 F3600 X135.505 Y87.807
M204 S500
G1 F1200 X133.828 Y86.13 E52.70683
M204 S1800
G0 F3600 X133.234 Y86.13
M204 S500
G1 F1200 X135.268 Y88.164 E52.80729
M204 S1800
G0 F3600 X135.069 Y88.558
M204 S500
G1 F1200 X134.788 Y88.278 E52.82114
M204 S1800
G0 F3600 X134.369 Y88.484
G0 X134.718 Y114.792
G0 X135 Y114.887
M204 S500
G1 F1200 X135.03 Y114.974 E52.82435
G1 X135.404 Y115.732 E52.85387
G1 X135.881 Y116.445 E52.88383
G1 X136.428 Y117.072 E52.91289
G1 X137.066 Y117.628 E52.94244
G1 X137.683 Y118.04 E52.96835
G1 X132.317 Y118.04 E53.15575
G1 X132.934 Y117.628 E53.18166
G1 X133.572 Y117.07 E53.21126
G1 X134.137 Y116.42 E53.24134
G1 X134.598 Y115.73 E53.27032
G1 X134.972 Y114.971 E53.29987
G1 X135 Y114.887 E53.30296
M204 S1800
G0 F3600 X134.829 Y115.641
M204 S500
G1 F1200 X135.8 Y116.612 E53.35092
G1 X135.87 Y116.682
M204 S1800
G0 F3600 X136.22 Y116.378
G0 X138.55 Y118.249
G0 X135.869 Y118.34
G0 X135.869 Y117.869
M204 S500
G1 F1200 X134.373 Y116.373 E53.4248
M204 S1800
G0 F3600 X134.112 Y116.706
M204 S500
G1 F1200 X135.275 Y117.869 E53.48224
M204 S1800
G0 F3600 X134.681 Y117.869
M204 S500
G1 F1200 X133.836 Y117.024 E53.52398
M204 S1800
G0 F3600 X133.541 Y117.323
M204 S500
G1 F1200 X134.087 Y117.869 E53.55094
M204 S1800
G0 F3600 X133.493 Y117.869
M204 S500
G1 F1200 X133.224 Y117.6 E53.56423
M204 S1800
G0 F3600 X132.916 Y117.246
G0 X134.221 Y115.756
G0 X134.61 Y116.016
M204 S500
